!!!COM: Haydn, Franz Joseph
!!!OPR: London Symphonies
!!!OTL: Symphony no. 94 in G major
!!!SCT: Hob. I:94
!!!OMV: 4
!!!OMD: Finale.  Allegro molto
!!!ODT: 1791///
!!!MPD: 1792/02/17/
!!!ONB: Basses also play cello part (but not always)
!!!ONB: Cor in G was presumed to be sounding up from transposed part
**kern	**kern	**kern	**kern	**kern	**kern	**kern	**kern	**kern	**kern	**kern	**kern	**kern	**kern	**kern
*	*	*	*	*	*	*	*ITrd-4c-7	*ITrd-4c-7	*	*	*	*	*	*
*Icello	*Iviola	*Ivioln	*Ivioln	*Itimpa	*Itromp	*Itromp	*Icor	*Icor	*Ifagot	*Ifagot	*Ioboe	*Ioboe	*Iflt	*Iflt
*I"Violoncello	*I"Viola	*I"Violino II	*I"Violino I	*	*I"Tromba 2 in C	*I"Tromba 1 in C	*I"Corno 2 in G	*I"Corno 1 in G	*I"Fagotto 2	*I"Fagotto 1	*I"Oboe 2	*I"Oboe 1	*I"Flauto 2	*I"Flauto 1
*	*	*I#2	*I#1	*I"Timpani	*I#2	*I#1	*I#2	*I#1	*I#2	*I#1	*I#2	*I#1	*I#2	*I#1
*staff10	*staff9	*staff8	*staff7	*staff6	*staff5	*staff5	*staff4	*staff4	*staff3	*staff3	*staff2	*staff2	*staff1	*staff1
*clefF4	*clefC3	*clefG2	*clefG2	*clefF4	*clefG2	*clefG2	*clefG2	*clefG2	*clefF4	*clefF4	*clefG2	*clefG2	*clefG2	*clefG2
*k[f#]	*k[f#]	*k[f#]	*k[f#]	*k[f#]	*k[f#]	*k[f#]	*k[f#]	*k[f#]	*k[f#]	*k[f#]	*k[f#]	*k[f#]	*k[f#]	*k[f#]
*G:	*G:	*G:	*G:	*G:	*G:	*G:	*G:	*G:	*G:	*G:	*G:	*G:	*G:	*G:
*M2/4	*M2/4	*M2/4	*M2/4	*M2/4	*M2/4	*M2/4	*M2/4	*M2/4	*M2/4	*M2/4	*M2/4	*M2/4	*M2/4	*M2/4
*MM144	*MM144	*MM144	*MM144	*MM144	*MM144	*MM144	*MM144	*MM144	*MM144	*MM144	*MM144	*MM144	*MM144	*MM144
8r	8r	8r	16d	8r	8r	8r	8r	8r	8r	8r	8r	8r	8r	8r
.	.	.	16g	.	.	.	.	.	.	.	.	.	.	.
=1	=1	=1	=1	=1	=1	=1	=1	=1	=1	=1	=1	=1	=1	=1
8G	8d	8B 8d	4b	2r	2r	2r	2r	2r	2r	2r	2r	2r	2r	2r
8r	8r	8r	.	.	.	.	.	.	.	.	.	.	.	.
8D	8c	8A 8f#	8cc	.	.	.	.	.	.	.	.	.	.	.
8r	8r	8r	8a'	.	.	.	.	.	.	.	.	.	.	.
=2	=2	=2	=2	=2	=2	=2	=2	=2	=2	=2	=2	=2	=2	=2
8GG	8B	8G 8g	8g'	2r	2r	2r	2r	2r	2r	2r	2r	2r	2r	2r
8r	8r	8r	8g'	.	.	.	.	.	.	.	.	.	.	.
8r	4r	4r	8g'	.	.	.	.	.	.	.	.	.	.	.
8G	.	.	8b	.	.	.	.	.	.	.	.	.	.	.
=3	=3	=3	=3	=3	=3	=3	=3	=3	=3	=3	=3	=3	=3	=3
8F#	2r	2d	8a	2r	2r	2r	2r	2r	2r	2r	2r	2r	2r	2r
8A	.	.	8cc	.	.	.	.	.	.	.	.	.	.	.
8G	.	.	8b	.	.	.	.	.	.	.	.	.	.	.
8B	.	.	8dd'	.	.	.	.	.	.	.	.	.	.	.
=4	=4	=4	=4	=4	=4	=4	=4	=4	=4	=4	=4	=4	=4	=4
8A	2r	8e	8dd	2r	2r	2r	2r	2r	2r	2r	2r	2r	2r	2r
8D	.	8f#	8cc	.	.	.	.	.	.	.	.	.	.	.
8G'	.	8g'	8b'	.	.	.	.	.	.	.	.	.	.	.
8r	.	8r	16d	.	.	.	.	.	.	.	.	.	.	.
.	.	.	16a	.	.	.	.	.	.	.	.	.	.	.
=5	=5	=5	=5	=5	=5	=5	=5	=5	=5	=5	=5	=5	=5	=5
4F#	4d	4a	4cc	2r	2r	2r	2r	2r	2r	2r	2r	2r	2r	2r
8r	8r	8r	8dd	.	.	.	.	.	.	.	.	.	.	.
8G	8d	8g	8b'	.	.	.	.	.	.	.	.	.	.	.
=6	=6	=6	=6	=6	=6	=6	=6	=6	=6	=6	=6	=6	=6	=6
4D	4d	4f#	8a'	2r	2r	2r	2r	2r	2r	2r	2r	2r	2r	2r
.	.	.	8a'	.	.	.	.	.	.	.	.	.	.	.
8r	8r	8r	8a'	.	.	.	.	.	.	.	.	.	.	.
8c	8a	8f#	8ee	.	.	.	.	.	.	.	.	.	.	.
=7	=7	=7	=7	=7	=7	=7	=7	=7	=7	=7	=7	=7	=7	=7
8B	8g	8g	8dd	2r	2r	2r	2r	2r	2r	2r	2r	2r	2r	2r
8c	8e	8a	8cc	.	.	.	.	.	.	.	.	.	.	.
8d	8d	8g	8b	.	.	.	.	.	.	.	.	.	.	.
8D	8c	8f#	8a	.	.	.	.	.	.	.	.	.	.	.
=8	=8	=8	=8	=8	=8	=8	=8	=8	=8	=8	=8	=8	=8	=8
8G	8B	8g	8g	2r	2r	2r	2r	2r	2r	2r	2r	2r	2ryy	4r
8r	8r	8r	8g'	.	.	.	.	.	.	.	.	.	.	.
4r	4r	4r	8g'	.	.	.	.	.	.	.	.	.	.	8r
.	.	.	16d	.	.	.	.	.	.	.	.	.	.	16dd
.	.	.	16g	.	.	.	.	.	.	.	.	.	.	16gg
=9	=9	=9	=9	=9	=9	=9	=9	=9	=9	=9	=9	=9	=9	=9
8G	8d	8B 8d	4b	2r	2r	2r	2r	2r	2r	2r	2r	2r	2ryy	4bb
8r	8r	8r	.	.	.	.	.	.	.	.	.	.	.	.
8D	8c	8A 8f#	8cc	.	.	.	.	.	.	.	.	.	.	8ccc
8r	8r	8r	8a'	.	.	.	.	.	.	.	.	.	.	8aa'
=10	=10	=10	=10	=10	=10	=10	=10	=10	=10	=10	=10	=10	=10	=10
8GG	8B	8G 8g	8g'	2r	2r	2r	2r	2r	2r	2r	2r	2r	2ryy	8gg'
8r	8r	8r	8g'	.	.	.	.	.	.	.	.	.	.	8gg'
8r	4r	4r	8g'	.	.	.	.	.	.	.	.	.	.	8gg'
8G	.	.	8b	.	.	.	.	.	.	.	.	.	.	8bb
=11	=11	=11	=11	=11	=11	=11	=11	=11	=11	=11	=11	=11	=11	=11
8F#	2r	2d	8a	2r	2r	2r	2r	2r	2r	2r	2r	2r	2ryy	8aa
8A	.	.	8cc	.	.	.	.	.	.	.	.	.	.	8ccc
8G	.	.	8b	.	.	.	.	.	.	.	.	.	.	8bb
8B'	.	.	8dd'	.	.	.	.	.	.	.	.	.	.	8ddd'
=12	=12	=12	=12	=12	=12	=12	=12	=12	=12	=12	=12	=12	=12	=12
8A	2r	8e	8dd	2r	2r	2r	2r	2r	2r	2r	2r	2r	2ryy	8ddd
8D	.	8f#	8cc	.	.	.	.	.	.	.	.	.	.	8ccc
8G'	.	8g'	8b'	.	.	.	.	.	.	.	.	.	.	8bb
8r	.	8r	16d	.	.	.	.	.	.	.	.	.	.	16dd
.	.	.	16a	.	.	.	.	.	.	.	.	.	.	16aa
=13	=13	=13	=13	=13	=13	=13	=13	=13	=13	=13	=13	=13	=13	=13
4F#	4d	4a	4cc	2r	2r	2r	2r	2r	2r	2r	2r	2r	2ryy	4ccc
8r	8r	8r	8dd	.	.	.	.	.	.	.	.	.	.	8ddd
8G	8d	8g	8b'	.	.	.	.	.	.	.	.	.	.	8bb'
=14	=14	=14	=14	=14	=14	=14	=14	=14	=14	=14	=14	=14	=14	=14
4D	4d	4f#	8a'	2r	2r	2r	2r	2r	2r	2r	2r	2r	2ryy	8aa'
.	.	.	8a'	.	.	.	.	.	.	.	.	.	.	8aa'
8r	8r	8r	8a'	.	.	.	.	.	.	.	.	.	.	8aa'
8c	8a	8f#	8ee	.	.	.	.	.	.	.	.	.	.	8eee
=15	=15	=15	=15	=15	=15	=15	=15	=15	=15	=15	=15	=15	=15	=15
8B	8g	8g	8dd	2r	2r	2r	2r	2r	2r	2r	2r	2r	2ryy	8ddd
8c	8e	8a	8cc	.	.	.	.	.	.	.	.	.	.	8ccc
8d	8d	8g	8b	.	.	.	.	.	.	.	.	.	.	8bb
8D	8c	8f#	8a	.	.	.	.	.	.	.	.	.	.	8aa
=16	=16	=16	=16	=16	=16	=16	=16	=16	=16	=16	=16	=16	=16	=16
8G	8B	8g	8g	2r	2r	2r	2r	2r	2r	2r	2r	2r	2ryy	8gg
8r	8r	8r	8g'	.	.	.	.	.	.	.	.	.	.	8gg'
4r	8r	8r	8g'	.	.	.	.	.	.	.	.	.	.	8gg'
.	8g	8dd	8bb	.	.	.	.	.	.	.	.	.	.	8r
=17	=17	=17	=17	=17	=17	=17	=17	=17	=17	=17	=17	=17	=17	=17
2r	4f#	4dd	8aa	2r	2r	2r	2r	2r	2r	2r	2r	2r	2r	2r
.	.	.	8ddd	.	.	.	.	.	.	.	.	.	.	.
.	8r	8r	8dd'	.	.	.	.	.	.	.	.	.	.	.
.	8e	8cc#	8gg'	.	.	.	.	.	.	.	.	.	.	.
=18	=18	=18	=18	=18	=18	=18	=18	=18	=18	=18	=18	=18	=18	=18
4r	4d	4dd	16ff#	2r	2r	2r	2r	2r	2r	2r	2r	2r	2r	2r
.	.	.	16gg	.	.	.	.	.	.	.	.	.	.	.
.	.	.	16aa	.	.	.	.	.	.	.	.	.	.	.
.	.	.	16ff#	.	.	.	.	.	.	.	.	.	.	.
8r	8r	8r	8dd'	.	.	.	.	.	.	.	.	.	.	.
8c	8c	8g	8ee'	.	.	.	.	.	.	.	.	.	.	.
=19	=19	=19	=19	=19	=19	=19	=19	=19	=19	=19	=19	=19	=19	=19
4B	4B	4g	8dd	2r	2r	2r	2r	2r	2r	2r	2r	2r	2r	2r
.	.	.	8gg	.	.	.	.	.	.	.	.	.	.	.
8r	8r	8r	8g'	.	.	.	.	.	.	.	.	.	.	.
8A	8A	8f#	8cc'	.	.	.	.	.	.	.	.	.	.	.
=20	=20	=20	=20	=20	=20	=20	=20	=20	=20	=20	=20	=20	=20	=20
4G	4G	4g	16b	2r	2r	2r	2r	2r	2r	2r	2r	2r	2r	2r
.	.	.	16cc	.	.	.	.	.	.	.	.	.	.	.
.	.	.	16dd	.	.	.	.	.	.	.	.	.	.	.
.	.	.	16b	.	.	.	.	.	.	.	.	.	.	.
8r	8r	8r	8g'	.	.	.	.	.	.	.	.	.	.	.
8BB	8d	[8G	16g	.	.	.	.	.	.	.	.	.	.	.
.	.	.	16f#	.	.	.	.	.	.	.	.	.	.	.
=21	=21	=21	=21	=21	=21	=21	=21	=21	=21	=21	=21	=21	=21	=21
4C	4e	8G]	8e'	2r	2r	2r	2r	2r	2r	2r	2r	2r	2r	2r
.	.	4A	16a	.	.	.	.	.	.	.	.	.	.	.
.	.	.	16g	.	.	.	.	.	.	.	.	.	.	.
4D	4f#	.	8f#'	.	.	.	.	.	.	.	.	.	.	.
.	.	[8B	16b	.	.	.	.	.	.	.	.	.	.	.
.	.	.	16a	.	.	.	.	.	.	.	.	.	.	.
=22	=22	=22	=22	=22	=22	=22	=22	=22	=22	=22	=22	=22	=22	=22
4E	4g	8B]	8g'	2r	2r	2r	2r	2r	2r	2r	2r	2r	2r	2r
.	.	4c	16cc	.	.	.	.	.	.	.	.	.	.	.
.	.	.	16b	.	.	.	.	.	.	.	.	.	.	.
4F#	4a	.	8a'	.	.	.	.	.	.	.	.	.	.	.
.	.	[8d	16dd	.	.	.	.	.	.	.	.	.	.	.
.	.	.	16cc	.	.	.	.	.	.	.	.	.	.	.
=23	=23	=23	=23	=23	=23	=23	=23	=23	=23	=23	=23	=23	=23	=23
4G	4b	8d]	8b	2r	2r	2r	2r	2r	2r	2r	2r	2r	2r	2r
.	.	8b	8gg	.	.	.	.	.	.	.	.	.	.	.
8r	8r	8g	8ee	.	.	.	.	.	.	.	.	.	.	.
8E	8e	8g'	8cc#	.	.	.	.	.	.	.	.	.	.	.
=24	=24	=24	=24	=24	=24	=24	=24	=24	=24	=24	=24	=24	=24	=24
[2D	2d	2f#	8dd	2r	2r	2r	2r	2r	2r	2r	2r	2r	2r	2r
.	.	.	8aa	.	.	.	.	.	.	.	.	.	.	.
.	.	.	8ff#	.	.	.	.	.	.	.	.	.	.	.
.	.	.	8dd	.	.	.	.	.	.	.	.	.	.	.
=25	=25	=25	=25	=25	=25	=25	=25	=25	=25	=25	=25	=25	=25	=25
2D_	2e	2g	8cc#	2r	2r	2r	2r	2r	2r	2r	2r	2r	2r	2r
.	.	.	8gg	.	.	.	.	.	.	.	.	.	.	.
.	.	.	8ee	.	.	.	.	.	.	.	.	.	.	.
.	.	.	8cc#	.	.	.	.	.	.	.	.	.	.	.
=26	=26	=26	=26	=26	=26	=26	=26	=26	=26	=26	=26	=26	=26	=26
2D_	4d	8f#	4.dd	2r	2r	2r	2r	2r	2r	2r	2r	2r	2r	2r
.	.	16dd	.	.	.	.	.	.	.	.	.	.	.	.
.	.	16ccn	.	.	.	.	.	.	.	.	.	.	.	.
.	4r	8b	.	.	.	.	.	.	.	.	.	.	.	.
.	.	16b	16dd	.	.	.	.	.	.	.	.	.	.	.
.	.	16a	16ccn	.	.	.	.	.	.	.	.	.	.	.
=27	=27	=27	=27	=27	=27	=27	=27	=27	=27	=27	=27	=27	=27	=27
8D]	8r	4g#	8b	2r	2r	2r	2r	2r	2r	2r	2r	2r	2r	2r
8d	8b	.	8ffn	.	.	.	.	.	.	.	.	.	.	.
8cn	8cc	8a	8ee'	.	.	.	.	.	.	.	.	.	.	.
8r	8r	16a	16cc	.	.	.	.	.	.	.	.	.	.	.
.	.	16gn	16b	.	.	.	.	.	.	.	.	.	.	.
=28	=28	=28	=28	=28	=28	=28	=28	=28	=28	=28	=28	=28	=28	=28
8r	8r	4f#	8a	2r	2r	2r	2r	2r	2r	2r	2r	2r	2r	2r
8c	8a	.	8ee	.	.	.	.	.	.	.	.	.	.	.
8B	8b	8g	8dd'	.	.	.	.	.	.	.	.	.	.	.
8BB	8g'	8d'	16gg	.	.	.	.	.	.	.	.	.	.	.
.	.	.	16ff#	.	.	.	.	.	.	.	.	.	.	.
=29	=29	=29	=29	=29	=29	=29	=29	=29	=29	=29	=29	=29	=29	=29
4.C	4g	4e	16ee	2r	2r	2r	2r	2r	2r	2r	2r	2r	2r	2r
.	.	.	16dd	.	.	.	.	.	.	.	.	.	.	.
.	.	.	16cc	.	.	.	.	.	.	.	.	.	.	.
.	.	.	16b	.	.	.	.	.	.	.	.	.	.	.
.	8r	8r	16a	.	.	.	.	.	.	.	.	.	.	.
.	.	.	16g	.	.	.	.	.	.	.	.	.	.	.
8C#	8c#	8e	16f#	.	.	.	.	.	.	.	.	.	.	.
.	.	.	16e	.	.	.	.	.	.	.	.	.	.	.
=30	=30	=30	=30	=30	=30	=30	=30	=30	=30	=30	=30	=30	=30	=30
4D	4d	4d	4d	2r	2r	2r	2r	2r	2r	2r	2r	2r	2r	2r
4r	4r	4r	16e	.	.	.	.	.	.	.	.	.	.	.
.	.	.	16f#	.	.	.	.	.	.	.	.	.	.	.
.	.	.	16g	.	.	.	.	.	.	.	.	.	.	.
.	.	.	16a	.	.	.	.	.	.	.	.	.	.	.
=31	=31	=31	=31	=31	=31	=31	=31	=31	=31	=31	=31	=31	=31	=31
8G	8d	8B 8d	4b	2r	2r	2r	2r	2r	2ryy	4B	2r	2r	2ryy	4bb
8r	8r	8r	.	.	.	.	.	.	.	.	.	.	.	.
8D	8cn	8A 8f#	8cc	.	.	.	.	.	.	8c	.	.	.	8ccc
8r	8r	8r	8a'	.	.	.	.	.	.	8A'	.	.	.	8aa'
=32	=32	=32	=32	=32	=32	=32	=32	=32	=32	=32	=32	=32	=32	=32
8GG	8B	8G 8g	8g'	2r	2r	2r	2r	2r	2ryy	8G'	2r	2r	2ryy	8gg'
8r	8r	8r	8g'	.	.	.	.	.	.	8G'	.	.	.	8gg'
8r	4r	4r	8g'	.	.	.	.	.	.	8G'	.	.	.	8gg'
8G	.	.	8b	.	.	.	.	.	.	8B	.	.	.	8bb
=33	=33	=33	=33	=33	=33	=33	=33	=33	=33	=33	=33	=33	=33	=33
8F#	2r	2d	8a	2r	2r	2r	2r	2r	2ryy	8A	2r	2r	2ryy	8aa
8A	.	.	8cc	.	.	.	.	.	.	8c	.	.	.	8ccc
8G	.	.	8b	.	.	.	.	.	.	8B	.	.	.	8bb
8B	.	.	8dd'	.	.	.	.	.	.	8d'	.	.	.	8ddd'
=34	=34	=34	=34	=34	=34	=34	=34	=34	=34	=34	=34	=34	=34	=34
8A	2r	8e	8dd	2r	2r	2r	2r	2r	2ryy	8d	2r	2r	2ryy	8ddd
8D	.	8f#	8ccT	.	.	.	.	.	.	8c	.	.	.	8ccc
8G'	.	8g'	8b'	.	.	.	.	.	.	8B	.	.	.	8bb'
8r	.	8r	16d	.	.	.	.	.	.	16D	.	.	.	16dd
.	.	.	16a	.	.	.	.	.	.	16A	.	.	.	16aa
=35	=35	=35	=35	=35	=35	=35	=35	=35	=35	=35	=35	=35	=35	=35
4F#	4d	4a	4cc	2r	2r	2r	2r	2r	2ryy	4c	2r	2r	2ryy	4ccc
8G	4r	8g	8b	.	.	.	.	.	.	8B	.	.	.	8bb
8r	.	8r	16e	.	.	.	.	.	.	16E	.	.	.	16ee
.	.	.	16b	.	.	.	.	.	.	16B	.	.	.	16bb
=36	=36	=36	=36	=36	=36	=36	=36	=36	=36	=36	=36	=36	=36	=36
4G#	4e	4b	4dd	2r	2r	2r	2r	2r	2ryy	4d	2r	2r	2ryy	4ddd
8A	4r	8a	8cc	.	.	.	.	.	.	8c	.	.	.	8ccc
8r	.	8r	8ee'	.	.	.	.	.	.	8e	.	.	.	8eee'
=37	=37	=37	=37	=37	=37	=37	=37	=37	=37	=37	=37	=37	=37	=37
4D	4A	4c	8f#'	2r	2r	2r	2r	2r	2ryy	8F#'	2r	2r	2ryy	8ff#'
.	.	.	8f#'	.	.	.	.	.	.	8F#'	.	.	.	8ff#'
4r	4r	8r	8f#'	.	.	.	.	.	.	8F#'	.	.	.	8ff#'
.	.	8f#	8f#'	.	.	.	.	.	.	8F#'	.	.	.	8ff#'
=38	=38	=38	=38	=38	=38	=38	=38	=38	=38	=38	=38	=38	=38	=38
4GG	4G	16g	16g	4GG	2g	2g	2b	2gg	4G	4G	2b	2gg	2gg	2gg
.	.	16a	16a	.	.	.	.	.	.	.	.	.	.	.
.	.	16b	16b	.	.	.	.	.	.	.	.	.	.	.
.	.	16cc	16cc	.	.	.	.	.	.	.	.	.	.	.
8r	4r	16dd	16dd	4r	.	.	.	.	8r	8r	.	.	.	.
.	.	16ee	16ee	.	.	.	.	.	.	.	.	.	.	.
8e	.	16ff#	16ff#	.	.	.	.	.	8e	8e	.	.	.	.
.	.	16gg	16gg	.	.	.	.	.	.	.	.	.	.	.
=39	=39	=39	=39	=39	=39	=39	=39	=39	=39	=39	=39	=39	=39	=39
8F#	4r	16dd	16dd	4D	2dd	2dd	2dd	2aa	4F#	4F#	2cc	2aa	2ddd	2ddd
.	.	16ee	16ee	.	.	.	.	.	.	.	.	.	.	.
8F#	.	16ff#	16ff#	.	.	.	.	.	.	.	.	.	.	.
.	.	16gg	16gg	.	.	.	.	.	.	.	.	.	.	.
8F#	8r	16aa	16aa	4r	.	.	.	.	8r	8r	.	.	.	.
.	.	16bb	16bb	.	.	.	.	.	.	.	.	.	.	.
8F#	8dd	16ccc	16ccc	.	.	.	.	.	8d	8d	.	.	.	.
.	.	16aa	16aa	.	.	.	.	.	.	.	.	.	.	.
=40	=40	=40	=40	=40	=40	=40	=40	=40	=40	=40	=40	=40	=40	=40
4G	8g	16bb	16bb	4GG	4g	4dd	2gg	2bb	8G	8G	[2b	2dd	2bb	2bb
.	.	16ccc	16ccc	.	.	.	.	.	.	.	.	.	.	.
.	8g	16bb	16bb	.	.	.	.	.	8G	8G	.	.	.	.
.	.	16aa	16aa	.	.	.	.	.	.	.	.	.	.	.
8r	8g	8gg	8gg	4r	4ryy	4r	.	.	8G	8G	.	.	.	.
8B	8g	16g	16g	.	.	.	.	.	8G	8G	.	.	.	.
.	.	16a	16a	.	.	.	.	.	.	.	.	.	.	.
=41	=41	=41	=41	=41	=41	=41	=41	=41	=41	=41	=41	=41	=41	=41
8D#	4b	16b	16b	2r	2r	2r	2bb	2bb	4B	4B	2b]	2aa	2ff#	2ff#
.	.	16cc#	16cc#	.	.	.	.	.	.	.	.	.	.	.
8D#	.	16dd#	16dd#	.	.	.	.	.	.	.	.	.	.	.
.	.	16ee	16ee	.	.	.	.	.	.	.	.	.	.	.
8D#	8r	16ff#	16ff#	.	.	.	.	.	8r	8r	.	.	.	.
.	.	16gg	16gg	.	.	.	.	.	.	.	.	.	.	.
8D#	8b	16aa	16aa	.	.	.	.	.	8B	8B	.	.	.	.
.	.	16ff#	16ff#	.	.	.	.	.	.	.	.	.	.	.
=42	=42	=42	=42	=42	=42	=42	=42	=42	=42	=42	=42	=42	=42	=42
4E	8e	16gg	16gg	2r	2r	2r	2bb	2bb	8E	8E	2b	2gg	2gg	2gg
.	.	16aa	16aa	.	.	.	.	.	.	.	.	.	.	.
.	8e	16gg	16gg	.	.	.	.	.	8E	8E	.	.	.	.
.	.	16ff#	16ff#	.	.	.	.	.	.	.	.	.	.	.
8r	8e	16ee	16ee	.	.	.	.	.	8E	8E	.	.	.	.
.	.	16dd	16dd	.	.	.	.	.	.	.	.	.	.	.
8G	8e	16cc#	16cc#	.	.	.	.	.	8E	8E	.	.	.	.
.	.	16b	16b	.	.	.	.	.	.	.	.	.	.	.
=43	=43	=43	=43	=43	=43	=43	=43	=43	=43	=43	=43	=43	=43	=43
8C#	4a	16a	16a	2r	2r	2r	2aa	2aa	4A	4A	2gg	2ee	2aa	2aa
.	.	16b	16b	.	.	.	.	.	.	.	.	.	.	.
8C#	.	16cc#	16cc#	.	.	.	.	.	.	.	.	.	.	.
.	.	16dd	16dd	.	.	.	.	.	.	.	.	.	.	.
8C#	8r	16ee	16ee	.	.	.	.	.	8r	8r	.	.	.	.
.	.	16ff#	16ff#	.	.	.	.	.	.	.	.	.	.	.
8C#	8a	16gg	16gg	.	.	.	.	.	8A	8A	.	.	.	.
.	.	16ee	16ee	.	.	.	.	.	.	.	.	.	.	.
=44	=44	=44	=44	=44	=44	=44	=44	=44	=44	=44	=44	=44	=44	=44
4D	8d	16ff#	16ff#	4D	4dd	4dd	4dd	4aa	4D	4D	4ff#	4ff#	4ff#	4ff#
.	.	16gg	16gg	.	.	.	.	.	.	.	.	.	.	.
.	16a	16ff#	16ff#	.	.	.	.	.	.	.	.	.	.	.
.	16g	16ee	16ee	.	.	.	.	.	.	.	.	.	.	.
8r	8f#'	16dd	16dd	4r	4ryy	4r	8ryy	8r	8r	8r	8ryy	8r	8r	8r
.	.	16aa	16aa	.	.	.	.	.	.	.	.	.	.	.
16D	16d	16ff#	16ff#	.	.	.	8aa	8aa	16D	16D	8f#	8dd	8dd	8dd
16F#	16f#	16dd	16dd	.	.	.	.	.	16F#	16F#	.	.	.	.
=45	=45	=45	=45	=45	=45	=45	=45	=45	=45	=45	=45	=45	=45	=45
4A	4a	16cc#	16cc#	2r	2ryy	2r	4aa	4aa	4A	4A	4e	4cc#	4cc#	4cc#
.	.	16dd	16dd	.	.	.	.	.	.	.	.	.	.	.
.	.	16cc#	16cc#	.	.	.	.	.	.	.	.	.	.	.
.	.	16b	16b	.	.	.	.	.	.	.	.	.	.	.
8r	8r	16a	16a	.	.	.	8ryy	8r	8r	8r	8ryy	8r	8r	8r
.	.	16ee	16ee	.	.	.	.	.	.	.	.	.	.	.
16A	16A	16cc#	16cc#	.	.	.	8aa	8aa	16A	16A	16cc#X	8gg	8gg	8gg
16c#	16c#	16g	16g	.	.	.	.	.	16c#	16c#	16ee	.	.	.
=46	=46	=46	=46	=46	=46	=46	=46	=46	=46	=46	=46	=46	=46	=46
4d	4d	16f#	16f#	4D	4dd	4dd	4dd	4aa	4d	4d	4dd	4ff#	4ff#	4ff#
.	.	16g	16g	.	.	.	.	.	.	.	.	.	.	.
.	.	16f#	16f#	.	.	.	.	.	.	.	.	.	.	.
.	.	16e	16e	.	.	.	.	.	.	.	.	.	.	.
8r	8r	16d	16d	4r	4ryy	4r	8ryy	8r	8r	8r	8ryy	8r	8r	8r
.	.	16a	16a	.	.	.	.	.	.	.	.	.	.	.
16D	16D	16f#	16f#	.	.	.	8dd	8aa	16D	16D	8f#	8dd	8aa	8aa
16F#	16F#	16d	16d	.	.	.	.	.	16F#	16F#	.	.	.	.
=47	=47	=47	=47	=47	=47	=47	=47	=47	=47	=47	=47	=47	=47	=47
4A	4A	16c#	16c#	2r	2ryy	2r	4aa	4aa	4A	4A	4g	4cc#	4ccc#	4ccc#
.	.	16d	16d	.	.	.	.	.	.	.	.	.	.	.
.	.	16c#	16c#	.	.	.	.	.	.	.	.	.	.	.
.	.	16B	16B	.	.	.	.	.	.	.	.	.	.	.
8r	8r	16A	16A	.	.	.	8ryy	8r	8r	8r	8ryy	8r	8r	8r
.	.	16c#	16c#	.	.	.	.	.	.	.	.	.	.	.
8AA	8c#	16e	16e	.	.	.	8aa	8aa	8AA	8AA	8cc#X	8gg	8aa	8aa
.	.	16g	16g	.	.	.	.	.	.	.	.	.	.	.
=48	=48	=48	=48	=48	=48	=48	=48	=48	=48	=48	=48	=48	=48	=48
4D	4d	16f#	16f#	4D	4dd	4dd	8dd	8ddd	8D	8D	8dd	8ff#	8ddd	8ddd
.	.	16a	16a	.	.	.	.	.	.	.	.	.	.	.
.	.	16cc#	16cc#	.	.	.	8ryy	8r	8r	8r	8ryy	8r	8r	8r
.	.	16dd	16dd	.	.	.	.	.	.	.	.	.	.	.
8r	8r	16a	16a	4r	4ryy	4r	8aa	8aa	8A	8A	8ee	8ccc#	8gg	8gg
.	.	16cc#	16cc#	.	.	.	.	.	.	.	.	.	.	.
8A	8e 8cc#	16ee	16ee	.	.	.	8ryy	8r	8r	8r	8ryy	8r	8r	8r
.	.	16gg	16gg	.	.	.	.	.	.	.	.	.	.	.
=49	=49	=49	=49	=49	=49	=49	=49	=49	=49	=49	=49	=49	=49	=49
4D	4d 4dd	16ff#	16ff#	4D	4dd	4dd	8dd	8ddd	8D	8D	8ff#	8ddd	8ff#	8ff#
.	.	16aa	16aa	.	.	.	.	.	.	.	.	.	.	.
.	.	16ff#	16ff#	.	.	.	8ryy	8r	8r	8r	8ryy	8r	8r	8r
.	.	16dd	16dd	.	.	.	.	.	.	.	.	.	.	.
8r	8r	16cc#	16cc#	4r	4ryy	4r	8aa	8aa	8AA	8AA	8cc#	8gg	8ee	8ee
.	.	16ee	16ee	.	.	.	.	.	.	.	.	.	.	.
8AA	8c#	16cc#	16cc#	.	.	.	8ryy	8r	8r	8r	8ryy	8r	8r	8r
.	.	16g	16g	.	.	.	.	.	.	.	.	.	.	.
=50	=50	=50	=50	=50	=50	=50	=50	=50	=50	=50	=50	=50	=50	=50
8r	8d	16f#	16f#	4D	4dd	4dd	8dd	8ddd	8D	8D	8dd	8ff#	8ff#	8ff#
.	.	16a	16a	.	.	.	.	.	.	.	.	.	.	.
8D	8r	16f#	16f#	.	.	.	8ryy	8r	8r	8r	8ryy	8r	8r	8r
.	.	16d	16d	.	.	.	.	.	.	.	.	.	.	.
8r	8A 8g	16c#	16c#	4r	4ryy	4r	8aa	8aa	8A	8A	8ee	8ccc#	8gg	8gg
.	.	16e	16e	.	.	.	.	.	.	.	.	.	.	.
8A	8r	16f#	16f#	.	.	.	8ryy	8r	8r	8r	8ryy	8r	8r	8r
.	.	16g	16g	.	.	.	.	.	.	.	.	.	.	.
=51	=51	=51	=51	=51	=51	=51	=51	=51	=51	=51	=51	=51	=51	=51
8r	8A 8f#	16f#	16f#	4D	4dd	4dd	8dd	8ddd	8D	8D	8ff#	8ddd	8ff#	8ff#
.	.	16a	16a	.	.	.	.	.	.	.	.	.	.	.
8D	8r	16cc#	16cc#	.	.	.	8ryy	8r	8r	8r	8ryy	8r	8r	8r
.	.	16dd	16dd	.	.	.	.	.	.	.	.	.	.	.
8r	8e 8cc#	16a	16a	4r	4ryy	4r	8aa	8aa	8AA	8AA	8cc#	8gg	8ee	8ee
.	.	16cc#	16cc#	.	.	.	.	.	.	.	.	.	.	.
8AA	8r	16ee	16ee	.	.	.	8ryy	8r	8r	8r	8ryy	8r	8r	8r
.	.	16gg	16gg	.	.	.	.	.	.	.	.	.	.	.
=52	=52	=52	=52	=52	=52	=52	=52	=52	=52	=52	=52	=52	=52	=52
4D	4f# 4dd	16ff#	16ff#	4D	4dd	4dd	4dd	4ddd	4D	4D	4dd	4ff#	4dd	4dd
.	.	16gg	16gg	.	.	.	.	.	.	.	.	.	.	.
.	.	16ff#	16ff#	.	.	.	.	.	.	.	.	.	.	.
.	.	16ee	16ee	.	.	.	.	.	.	.	.	.	.	.
8r	8r	16ff#	16ff#	4r	4ryy	4r	4ryy	4r	8r	8r	8ryy	8r	8r	8r
.	.	16dd	16dd	.	.	.	.	.	.	.	.	.	.	.
8d	8dd	16bb	16bb	.	.	.	.	.	8d	8d	8ee	8gg#	8gg#	8gg#
.	.	16gg#	16gg#	.	.	.	.	.	.	.	.	.	.	.
=53	=53	=53	=53	=53	=53	=53	=53	=53	=53	=53	=53	=53	=53	=53
8c#	8cc#	16aa	16aa	2r	2r	2r	2r	2r	8c#	8c#	4a	4aa	4aa	4aa
.	.	16bb	16bb	.	.	.	.	.	.	.	.	.	.	.
8d	8dd	16aa	16aa	.	.	.	.	.	8d	8d	.	.	.	.
.	.	16gg#	16gg#	.	.	.	.	.	.	.	.	.	.	.
8c#	8cc#	16aa	16aa	.	.	.	.	.	8c#	8c#	8ryy	8r	8r	8r
.	.	16a	16a	.	.	.	.	.	.	.	.	.	.	.
8C#X	8c#X	16ggn	16ggn	.	.	.	.	.	8C#X	8C#X	8ee	8ggn	8ggn	8ggn
.	.	16ee	16ee	.	.	.	.	.	.	.	.	.	.	.
=54	=54	=54	=54	=54	=54	=54	=54	=54	=54	=54	=54	=54	=54	=54
8D	8d	16ff#	16ff#	2r	2r	2r	2r	2r	8D	8D	4ff#	4ff#	4ff#	4ff#
.	.	16gg	16gg	.	.	.	.	.	.	.	.	.	.	.
8C#	8c#	16ff#	16ff#	.	.	.	.	.	8C#	8C#	.	.	.	.
.	.	16ee	16ee	.	.	.	.	.	.	.	.	.	.	.
8D	8d	16ff#	16ff#	.	.	.	.	.	8D	8D	8ryy	8r	8r	8r
.	.	16dd	16dd	.	.	.	.	.	.	.	.	.	.	.
8d	8dd	16bb	16bb	.	.	.	.	.	8d	8d	8ee	8gg#	8gg#	8gg#
.	.	16gg#	16gg#	.	.	.	.	.	.	.	.	.	.	.
=55	=55	=55	=55	=55	=55	=55	=55	=55	=55	=55	=55	=55	=55	=55
8c#	8cc#	16aa	16aa	2r	2r	2r	2r	2r	8c#	8c#	4a	8aa	8aa	8aa
.	.	16bb	16bb	.	.	.	.	.	.	.	.	.	.	.
8B	8b	16ggn	16ggn	.	.	.	.	.	8B	8B	.	8ggn	8ggn	8ggn
.	.	16aa	16aa	.	.	.	.	.	.	.	.	.	.	.
8A	8a	16ff#	16ff#	.	.	.	.	.	8A	8A	4r	8ff#	8ff#	8ff#
.	.	16gg	16gg	.	.	.	.	.	.	.	.	.	.	.
8G	8g	16ee	16ee	.	.	.	.	.	8G	8G	.	8ee'	8ee'	8ee'
.	.	16ff#	16ff#	.	.	.	.	.	.	.	.	.	.	.
=56	=56	=56	=56	=56	=56	=56	=56	=56	=56	=56	=56	=56	=56	=56
4F#	4f#	16dd	16dd	4D	2dd	2dd	2dd	2aa	4F#	4F#	2aa	2dd	4dd	4dd
.	.	16ee	16ee	.	.	.	.	.	.	.	.	.	.	.
.	.	16ff#	16ff#	.	.	.	.	.	.	.	.	.	.	.
.	.	16gg	16gg	.	.	.	.	.	.	.	.	.	.	.
8r	8r	16aa	16aa	8D	.	.	.	.	8r	8r	.	.	4aa	4aa
.	.	16bb	16bb	.	.	.	.	.	.	.	.	.	.	.
8F#	8d 8a	16ccc#	16ccc#	8D	.	.	.	.	8F#	8F#	.	.	.	.
.	.	16ddd	16ddd	.	.	.	.	.	.	.	.	.	.	.
=57	=57	=57	=57	=57	=57	=57	=57	=57	=57	=57	=57	=57	=57	=57
4G	4d 4b	16bb	16bb	4GG	4g	4dd	4gg	4bb	4G	4G	2bb	2dd	4bb	4bb
.	.	16aa	16aa	.	.	.	.	.	.	.	.	.	.	.
.	.	16gg	16gg	.	.	.	.	.	.	.	.	.	.	.
.	.	16ff#	16ff#	.	.	.	.	.	.	.	.	.	.	.
8r	8r	16ee	16ee	4r	4ryy	4r	4ryy	4r	8r	8r	.	.	4ddd	4ddd
.	.	16dd	16dd	.	.	.	.	.	.	.	.	.	.	.
8G#	8B	16cc#	16cc#	.	.	.	.	.	8G#	8G#	.	.	.	.
.	.	16b	16b	.	.	.	.	.	.	.	.	.	.	.
=58	=58	=58	=58	=58	=58	=58	=58	=58	=58	=58	=58	=58	=58	=58
4A	4A	4a	16a	2r	2r	2r	8aa	8aa	4A	4A	4aa	4cc#	[2aa	[2aa
.	.	.	16aa	.	.	.	.	.	.	.	.	.	.	.
.	.	.	16a	.	.	.	8aa	8aa	.	.	.	.	.	.
.	.	.	16aa	.	.	.	.	.	.	.	.	.	.	.
4r	8r	8r	16a	.	.	.	8aa	8aa	4r	4r	4r	8r	.	.
.	.	.	16aa	.	.	.	.	.	.	.	.	.	.	.
.	16A	16A	16a	.	.	.	8ryy	8r	.	.	.	16a	.	.
.	16d	16d	16aa	.	.	.	.	.	.	.	.	16dd	.	.
=59	=59	=59	=59	=59	=59	=59	=59	=59	=59	=59	=59	=59	=59	=59
2r	4f#	4f#	16a	2r	2r	2r	2ryy	2r	2r	2r	2r	4ff#	2aa_	2aa_
.	.	.	16aa	.	.	.	.	.	.	.	.	.	.	.
.	.	.	16a	.	.	.	.	.	.	.	.	.	.	.
.	.	.	16aa	.	.	.	.	.	.	.	.	.	.	.
.	8g	8g	16a	.	.	.	.	.	.	.	.	8gg	.	.
.	.	.	16aa	.	.	.	.	.	.	.	.	.	.	.
.	8e'	8e'	16a	.	.	.	.	.	.	.	.	8ee'	.	.
.	.	.	16aa	.	.	.	.	.	.	.	.	.	.	.
=60	=60	=60	=60	=60	=60	=60	=60	=60	=60	=60	=60	=60	=60	=60
4r	8c#'	8c#'	16a	2r	2r	2r	8aa	8aa	4r	4r	4r	8cc#'	2aa_	2aa_
.	.	.	16aa	.	.	.	.	.	.	.	.	.	.	.
.	8c#'	8c#'	16a	.	.	.	8aa	8aa	.	.	.	8cc#'	.	.
.	.	.	16aa	.	.	.	.	.	.	.	.	.	.	.
8r	8c#'	8c#'	16a	.	.	.	8aa	8aa	8r	8r	8r	8cc#'	.	.
.	.	.	16aa	.	.	.	.	.	.	.	.	.	.	.
16AA	16A	16A	16a	.	.	.	8ryy	8r	16AA	16AA	16a	16a	.	.
16D	16d	16f#	16aa	.	.	.	.	.	16D	16D	16ff#	16ff#	.	.
=61	=61	=61	=61	=61	=61	=61	=61	=61	=61	=61	=61	=61	=61	=61
4F#	4f#	4a	16a	2r	2r	2r	2ryy	2r	4F#	4F#	4aa	4aa	2aa_	2aa_
.	.	.	16aa	.	.	.	.	.	.	.	.	.	.	.
.	.	.	16a	.	.	.	.	.	.	.	.	.	.	.
.	.	.	16aa	.	.	.	.	.	.	.	.	.	.	.
8G	8g	8b	16a	.	.	.	.	.	8G	8G	8bb	8bb	.	.
.	.	.	16aa	.	.	.	.	.	.	.	.	.	.	.
8E'	8e'	8g'	16a	.	.	.	.	.	8E'	8E'	8gg'	8gg'	.	.
.	.	.	16aa	.	.	.	.	.	.	.	.	.	.	.
=62	=62	=62	=62	=62	=62	=62	=62	=62	=62	=62	=62	=62	=62	=62
8C#'	8c#'	8e'	16a	2r	2r	2r	8aa	8aa	8C#'	8C#'	8ee'	8ee'	4.aa]	4.aa]
.	.	.	16aa	.	.	.	.	.	.	.	.	.	.	.
8C#'	8c#'	8e'	16a	.	.	.	8aa	8aa	8C#'	8C#'	8ee'	8ee'	.	.
.	.	.	16aa	.	.	.	.	.	.	.	.	.	.	.
8C#'	8c#'	8e'	8a	.	.	.	8aa	8aa	8C#'	8C#'	8ee'	8ee'	.	.
8G	8r	8r	16aa	.	.	.	8ryy	8r	8r	8r	8ryy	8r	8ccc#	8ccc#
.	.	.	16ccc#	.	.	.	.	.	.	.	.	.	.	.
=63	=63	=63	=63	=63	=63	=63	=63	=63	=63	=63	=63	=63	=63	=63
8F#	2F#	2d 2a	4ddd	4D	2dd	2dd	2dd	2aa	2F#	2F#	[2dd	2aa	4ddd	4ddd
8F#	.	.	.	.	.	.	.	.	.	.	.	.	.	.
8F#	.	.	8eee	8D	.	.	.	.	.	.	.	.	8eee	8eee
8F#	.	.	8cccn'	8D	.	.	.	.	.	.	.	.	8cccn'	8cccn'
=64	=64	=64	=64	=64	=64	=64	=64	=64	=64	=64	=64	=64	=64	=64
8G	16G	16d	16bb	4GG	4g	4dd	4gg	4bb	8G	8G	2dd_	8bb'	8bb'	8bb'
.	16G	16d	16bb	.	.	.	.	.	.	.	.	.	.	.
8F#	16F#	16d	16aa#	.	.	.	.	.	8F#	8F#	.	8aa#'	8aa#'	8aa#'
.	16F#	16d	16aa#	.	.	.	.	.	.	.	.	.	.	.
8G	16G	16d	16bb	4r	4ryy	4r	4ryy	4r	8G	8G	.	8bb'	8bb'	8bb'
.	16G	16d	16bb	.	.	.	.	.	.	.	.	.	.	.
8A	16A	16d	16aan	.	.	.	.	.	8A	8A	.	8aan'	8aan'	8aan'
.	16A	16d	16aa	.	.	.	.	.	.	.	.	.	.	.
=65	=65	=65	=65	=65	=65	=65	=65	=65	=65	=65	=65	=65	=65	=65
8B	16B	16d	16gg#	2r	2r	2r	2r	2r	4B	4B	2dd_	4gg#	4gg#	4gg#
.	16B	16d	16gg#	.	.	.	.	.	.	.	.	.	.	.
8B	16B	16d	16gg#	.	.	.	.	.	.	.	.	.	.	.
.	16B	16d	16gg#	.	.	.	.	.	.	.	.	.	.	.
8B-	16B-	16d	16ggn	.	.	.	.	.	4B-	4B-	.	4ggn	4ggn	4ggn
.	16B-	16d	16gg	.	.	.	.	.	.	.	.	.	.	.
8B-	16B-	16d	16gg	.	.	.	.	.	.	.	.	.	.	.
.	16B-	16d	16gg	.	.	.	.	.	.	.	.	.	.	.
=66	=66	=66	=66	=66	=66	=66	=66	=66	=66	=66	=66	=66	=66	=66
8A	16A	16d	16ff#	2r	2r	2r	2r	2r	2A	2A	4dd]	4ff#	4ff#	4ff#
.	16A	16d	16ff#	.	.	.	.	.	.	.	.	.	.	.
8A	16A	16d	16ff#	.	.	.	.	.	.	.	.	.	.	.
.	16A	16d	16ff#	.	.	.	.	.	.	.	.	.	.	.
8A	16A	16cn	16ffn	.	.	.	.	.	.	.	4ccn	4ffn	4ffn	4ffn
.	16A	16c	16ff	.	.	.	.	.	.	.	.	.	.	.
8A	16A	16c	16ff	.	.	.	.	.	.	.	.	.	.	.
.	16A	16c	16ff	.	.	.	.	.	.	.	.	.	.	.
=67	=67	=67	=67	=67	=67	=67	=67	=67	=67	=67	=67	=67	=67	=67
8G#	16G#	16B	16ee	2r	2r	2r	2r	2r	8G#	8G#	8b	8ee	4ee	4ee
.	16G#	16B	16ee	.	.	.	.	.	.	.	.	.	.	.
8Gn	16e	16c#	16cc#	.	.	.	.	.	8Gn	8Gn	8cc#	8cc#	.	.
.	16e	16c#	16cc#	.	.	.	.	.	.	.	.	.	.	.
8F#	16d	16d	16dd	.	.	.	.	.	8F#	8F#	8dd	8dd	8r	8r
.	16d	16d	16dd	.	.	.	.	.	.	.	.	.	.	.
8G	16d	16g	16b	.	.	.	.	.	8G	8G	8bb	8dd	8eee	8eee
.	16d	16g	16b	.	.	.	.	.	.	.	.	.	.	.
=68	=68	=68	=68	=68	=68	=68	=68	=68	=68	=68	=68	=68	=68	=68
4A	16d	8f#	16a	2r	2r	2r	2r	2r	4A	4A	2aa	2ff#	2ddd	2ddd
.	16d	.	16dd	.	.	.	.	.	.	.	.	.	.	.
.	16d	4A 4f#	16ff#	.	.	.	.	.	.	.	.	.	.	.
.	16d	.	16aa	.	.	.	.	.	.	.	.	.	.	.
4r	16d	.	16gg	.	.	.	.	.	4r	4r	.	.	.	.
.	16d	.	16ff#	.	.	.	.	.	.	.	.	.	.	.
.	16d	8A 8f#	16ee	.	.	.	.	.	.	.	.	.	.	.
.	16d	.	16dd	.	.	.	.	.	.	.	.	.	.	.
=69	=69	=69	=69	=69	=69	=69	=69	=69	=69	=69	=69	=69	=69	=69
4AA	16e	8A 8g	16cc#	2r	2r	2r	2r	2r	4AA	4AA	2gg	2ee	2ccc#	2ccc#
.	16e	.	16b	.	.	.	.	.	.	.	.	.	.	.
.	16e	4A 4g	16a	.	.	.	.	.	.	.	.	.	.	.
.	16e	.	16g	.	.	.	.	.	.	.	.	.	.	.
4r	16e	.	16f#	.	.	.	.	.	4r	4r	.	.	.	.
.	16e	.	16e	.	.	.	.	.	.	.	.	.	.	.
.	16e	8A 8g	16d	.	.	.	.	.	.	.	.	.	.	.
.	16e	.	16c#X	.	.	.	.	.	.	.	.	.	.	.
=70	=70	=70	=70	=70	=70	=70	=70	=70	=70	=70	=70	=70	=70	=70
8BB	16d	8f#	16d	4D	4dd	4dd	[2dd	[2dd	8BB	8BB	8ff#	8dd	[2ddd	[2ddd
.	16d	.	16d	.	.	.	.	.	.	.	.	.	.	.
8B	16B	4d	16g	.	.	.	.	.	8B	8B	4dd	8gg	.	.
.	16B	.	16g	.	.	.	.	.	.	.	.	.	.	.
8A	16A	.	16f#	4r	4ryy	4r	.	.	8A	8A	.	8ff#	.	.
.	16A	.	16f#	.	.	.	.	.	.	.	.	.	.	.
8G	16G	[8d	16b	.	.	.	.	.	8G	8G	[8dd	8bb	.	.
.	16G	.	16b	.	.	.	.	.	.	.	.	.	.	.
=71	=71	=71	=71	=71	=71	=71	=71	=71	=71	=71	=71	=71	=71	=71
8F#	16F#	8d]	16a	4D	4dd	4dd	2dd_	2dd_	8F#	8F#	8dd]	8aa	8ddd]	8ddd]
.	16F#	.	16a	.	.	.	.	.	.	.	.	.	.	.
8f#	16f#	8a	16dd	.	.	.	.	.	8f#	8f#	8a	8dd	8ddd	8ddd
.	16f#	.	16dd	.	.	.	.	.	.	.	.	.	.	.
8e	16e	8g	16cc#	4r	4ryy	4r	.	.	8e	8e	8g	8cc#	8ccc#	8ccc#
.	16e	.	16cc#	.	.	.	.	.	.	.	.	.	.	.
8A	16e	8cc#	16gg	.	.	.	.	.	8A	8A	8cc#X	8gg	8eee	8eee
.	16e	.	16gg	.	.	.	.	.	.	.	.	.	.	.
=72	=72	=72	=72	=72	=72	=72	=72	=72	=72	=72	=72	=72	=72	=72
8d	8d	8dd	8ff#	4D	4dd	4dd	8dd]	8dd]	8d	8d	8dd	8ff#	8ddd	8ddd
8r	8r	8r	8r	.	.	.	8r	8r	8r	8r	8ryy	8r	8r	8r
8G	8G	8gg	8bb	4r	4ryy	4r	8gg	8gg	8G	8G	8gg	8bb	8bb	8bb
8r	8r	8r	8r	.	.	.	8r	8r	8r	8r	8ryy	8r	8r	8r
=73	=73	=73	=73	=73	=73	=73	=73	=73	=73	=73	=73	=73	=73	=73
8A	8A	8dd 8ff#	8aa	2r	2r	2r	8aa	8aa	8A	8A	8ff#	8aa	8aa	8aa
8r	8r	8r	8r	.	.	.	8r	8r	8r	8r	8ryy	8r	8r	8r
8AA	8A	8cc# 8ee	8e 8cc#	.	.	.	8aa	8aa	8AA	8AA	8ee	8cc#	8ccc#	8ccc#
8r	8r	8r	8r	.	.	.	8r	8r	8r	8r	8ryy	8r	8r	8r
=74	=74	=74	=74	=74	=74	=74	=74	=74	=74	=74	=74	=74	=74	=74
2r	2r	2r	2r	2r	2r	2r	2r	2r	2r	2r	2r	2r	2r	2r
=75	=75	=75	=75	=75	=75	=75	=75	=75	=75	=75	=75	=75	=75	=75
4D	2r	8r	4r	2r	2r	2r	2r	2r	2r	2r	2r	2r	2r	2r
.	.	16A	.	.	.	.	.	.	.	.	.	.	.	.
.	.	16d	.	.	.	.	.	.	.	.	.	.	.	.
4r	.	8f#'	8r	.	.	.	.	.	.	.	.	.	.	.
.	.	8f#'	8dd	.	.	.	.	.	.	.	.	.	.	.
=76	=76	=76	=76	=76	=76	=76	=76	=76	=76	=76	=76	=76	=76	=76
4D	2r	8r	8cc#	2r	2r	2r	2r	2r	2r	2r	2r	2r	2r	2r
.	.	16c#	8a	.	.	.	.	.	.	.	.	.	.	.
.	.	16e	.	.	.	.	.	.	.	.	.	.	.	.
4r	.	8g'	8g	.	.	.	.	.	.	.	.	.	.	.
.	.	8g'	8e	.	.	.	.	.	.	.	.	.	.	.
=77	=77	=77	=77	=77	=77	=77	=77	=77	=77	=77	=77	=77	=77	=77
4D	2r	8r	4.d	2r	2r	2r	2r	2r	2r	2r	2r	2r	2r	2r
.	.	16A	.	.	.	.	.	.	.	.	.	.	.	.
.	.	16d	.	.	.	.	.	.	.	.	.	.	.	.
4r	.	8f#'	.	.	.	.	.	.	.	.	.	.	.	.
.	.	8f#'	8dd	.	.	.	.	.	.	.	.	.	.	.
=78	=78	=78	=78	=78	=78	=78	=78	=78	=78	=78	=78	=78	=78	=78
4D	2r	8r	8cc#	2r	2r	2r	2r	2r	2r	2r	2r	2r	2r	2r
.	.	16c#	8aa	.	.	.	.	.	.	.	.	.	.	.
.	.	16e	.	.	.	.	.	.	.	.	.	.	.	.
4r	.	8g'	8aa'	.	.	.	.	.	.	.	.	.	.	.
.	.	8g'	8aa'	.	.	.	.	.	.	.	.	.	.	.
=79	=79	=79	=79	=79	=79	=79	=79	=79	=79	=79	=79	=79	=79	=79
4D	2r	8r	8.aa	2r	2r	2r	2r	2r	2D	[2A	2ryy	4r	2r	2r
.	.	16A	.	.	.	.	.	.	.	.	.	.	.	.
.	.	16d	16ff#	.	.	.	.	.	.	.	.	.	.	.
4r	.	8f#'	8dd'	.	.	.	.	.	.	.	.	8r	.	.
.	.	8f#'	8dd'	.	.	.	.	.	.	.	.	8dd'	.	.
=80	=80	=80	=80	=80	=80	=80	=80	=80	=80	=80	=80	=80	=80	=80
4D	8r	8r	8cc#	2r	2r	2r	2r	2r	2D	2A_	2ryy	8cc#	2r	2r
.	8A	16c#	8a	.	.	.	.	.	.	.	.	8a	.	.
.	.	16e	.	.	.	.	.	.	.	.	.	.	.	.
4r	8A	8g'	8g	.	.	.	.	.	.	.	.	8g	.	.
.	8A	8g'	8e	.	.	.	.	.	.	.	.	8e	.	.
=81	=81	=81	=81	=81	=81	=81	=81	=81	=81	=81	=81	=81	=81	=81
4D	8r	8r	4.d	2r	2r	2r	2r	2r	2D	2A_	2ryy	4.d	2r	2r
.	8A	16A	.	.	.	.	.	.	.	.	.	.	.	.
.	.	16d	.	.	.	.	.	.	.	.	.	.	.	.
4r	8A	8f#'	.	.	.	.	.	.	.	.	.	.	.	.
.	8A	8f#'	8dd	.	.	.	.	.	.	.	.	8dd	.	.
=82	=82	=82	=82	=82	=82	=82	=82	=82	=82	=82	=82	=82	=82	=82
4D	8r	8r	8cc#	2r	2r	2r	2r	2r	2D	2A_	2ryy	8cc#	2r	2r
.	8c# 8e	16c#	8aa	.	.	.	.	.	.	.	.	8aa	.	.
.	.	16e	.	.	.	.	.	.	.	.	.	.	.	.
4r	8c# 8e	8g'	8aa'	.	.	.	.	.	.	.	.	8aa'	.	.
.	8c# 8e	8g'	8aa'	.	.	.	.	.	.	.	.	8aa'	.	.
=83	=83	=83	=83	=83	=83	=83	=83	=83	=83	=83	=83	=83	=83	=83
4D	8r	8r	8.aa	2r	2r	2r	2r	2r	2D	2A_	2ryy	8.aa	2ryy	4r
.	8d	16A	.	.	.	.	.	.	.	.	.	.	.	.
.	.	16d	16ff#	.	.	.	.	.	.	.	.	16ff#	.	.
4r	8d	8f#'	8dd'	.	.	.	.	.	.	.	.	8dd'	.	8r
.	8d	8f#'	8dd'	.	.	.	.	.	.	.	.	8r	.	8ddd
=84	=84	=84	=84	=84	=84	=84	=84	=84	=84	=84	=84	=84	=84	=84
4F#	8r	8r	8ccn	2r	2r	2r	2r	2r	2D	2A]	2r	2r	2ryy	8cccn
.	8f#	16d	8a	.	.	.	.	.	.	.	.	.	.	8aa
.	.	16f#	.	.	.	.	.	.	.	.	.	.	.	.
4r	8f#	8a'	8f#	.	.	.	.	.	.	.	.	.	.	8ff#
.	8f#	8a'	8c	.	.	.	.	.	.	.	.	.	.	8ccn
=85	=85	=85	=85	=85	=85	=85	=85	=85	=85	=85	=85	=85	=85	=85
4G	8r	8r	4.B	2r	2r	2r	2r	2r	4G	4B	2r	4r	2ryy	4.b
.	8g	16d	.	.	.	.	.	.	.	.	.	.	.	.
.	.	16g	.	.	.	.	.	.	.	.	.	.	.	.
4r	8g	8b'	.	.	.	.	.	.	4ryy	4r	.	8r	.	.
.	8g	8g'	8b'	.	.	.	.	.	.	.	.	8gg'	.	8bb'
=86	=86	=86	=86	=86	=86	=86	=86	=86	=86	=86	=86	=86	=86	=86
4A	4a	8f#	8a	2r	2r	2r	2r	2r	2r	2r	2r	8ff#	2ryy	8aa
.	.	8d	8f#	.	.	.	.	.	.	.	.	8dd	.	8ff#
4r	4A	8e	8g	.	.	.	.	.	.	.	.	8ee	.	8gg
.	.	8c#	8e	.	.	.	.	.	.	.	.	8cc#	.	8ee
=87	=87	=87	=87	=87	=87	=87	=87	=87	=87	=87	=87	=87	=87	=87
4D	4d	4d	16d	4D	4dd	4dd	4dd	4aa	4D	4D	4f#	4dd	4dd	4dd
.	.	.	16f#	.	.	.	.	.	.	.	.	.	.	.
.	.	.	16a	.	.	.	.	.	.	.	.	.	.	.
.	.	.	16dd	.	.	.	.	.	.	.	.	.	.	.
4ryy	4r	4r	16cc#	4r	4ryy	4r	4ryy	4r	4r	4r	4ryy	4r	4r	4r
.	.	.	16b	.	.	.	.	.	.	.	.	.	.	.
.	.	.	16a	.	.	.	.	.	.	.	.	.	.	.
.	.	.	16g	.	.	.	.	.	.	.	.	.	.	.
=88	=88	=88	=88	=88	=88	=88	=88	=88	=88	=88	=88	=88	=88	=88
4D	4D 4A 4d	16d	16f#	4D	4dd	4dd	4dd	4aa	4D	4D	4dd	4ff#	4ddd	4ddd
.	.	16f#	16a	.	.	.	.	.	.	.	.	.	.	.
.	.	16a	16dd	.	.	.	.	.	.	.	.	.	.	.
.	.	16dd	16ff#	.	.	.	.	.	.	.	.	.	.	.
4r	4r	16cc#	16ee	4r	4ryy	4r	4ryy	4r	4r	4r	4ryy	4r	4r	4r
.	.	16b	16dd	.	.	.	.	.	.	.	.	.	.	.
.	.	16a	16cc#	.	.	.	.	.	.	.	.	.	.	.
.	.	16g	16b	.	.	.	.	.	.	.	.	.	.	.
=89	=89	=89	=89	=89	=89	=89	=89	=89	=89	=89	=89	=89	=89	=89
4D	4D 4A 4d	16f#	16a	4D	4dd	4dd	4dd	4aa	4D	4D	4ff#	4aa	4ddd	4ddd
.	.	16a	16dd	.	.	.	.	.	.	.	.	.	.	.
.	.	16dd	16ff#	.	.	.	.	.	.	.	.	.	.	.
.	.	16ff#	16aa	.	.	.	.	.	.	.	.	.	.	.
4r	4r	16ee	16gg	4r	4ryy	4r	4ryy	4r	4r	4r	4ryy	4r	4r	4r
.	.	16dd	16ff#	.	.	.	.	.	.	.	.	.	.	.
.	.	16cc#	16ee	.	.	.	.	.	.	.	.	.	.	.
.	.	16b	16dd	.	.	.	.	.	.	.	.	.	.	.
=90	=90	=90	=90	=90	=90	=90	=90	=90	=90	=90	=90	=90	=90	=90
2r	2r	16a	16cc#	2r	2ryy	2r	2r	2r	2r	2r	2r	2r	2r	2r
.	.	16g	16b	.	.	.	.	.	.	.	.	.	.	.
.	.	16f#	16a	.	.	.	.	.	.	.	.	.	.	.
.	.	16e	16g	.	.	.	.	.	.	.	.	.	.	.
.	.	16d	16f#	.	.	.	.	.	.	.	.	.	.	.
.	.	16c#	16e	.	.	.	.	.	.	.	.	.	.	.
.	.	16B	16d	.	.	.	.	.	.	.	.	.	.	.
.	.	16A	16c#X	.	.	.	.	.	.	.	.	.	.	.
=91	=91	=91	=91	=91	=91	=91	=91	=91	=91	=91	=91	=91	=91	=91
8G	8g	16G	16B	4GG	2dd	2dd	2r	2r	2G	2G	2dd	[2bb	[2ddd	[2ddd
.	.	16G	16B	.	.	.	.	.	.	.	.	.	.	.
8G	8g	16B	16g	.	.	.	.	.	.	.	.	.	.	.
.	.	16B	16g	.	.	.	.	.	.	.	.	.	.	.
8G	8g	16d	16b	8GG	.	.	.	.	.	.	.	.	.	.
.	.	16d	16b	.	.	.	.	.	.	.	.	.	.	.
8G	8g	16b	16dd	8GG	.	.	.	.	.	.	.	.	.	.
.	.	16b	16dd	.	.	.	.	.	.	.	.	.	.	.
=92	=92	=92	=92	=92	=92	=92	=92	=92	=92	=92	=92	=92	=92	=92
8G	8g	16dd	16gg	4GG	2dd	2dd	2r	2r	2G	2G	2dd	2bb]	4ddd]	4ddd]
.	.	16dd	16gg	.	.	.	.	.	.	.	.	.	.	.
8G	8g	16gg	16bb	.	.	.	.	.	.	.	.	.	.	.
.	.	16gg	16bb	.	.	.	.	.	.	.	.	.	.	.
8G	8g	16bb	16ddd	4r	.	.	.	.	.	.	.	.	4bb	4bb
.	.	16bb	16ddd	.	.	.	.	.	.	.	.	.	.	.
8G	8g	16gg	16bb	.	.	.	.	.	.	.	.	.	.	.
.	.	16gg	16bb	.	.	.	.	.	.	.	.	.	.	.
=93	=93	=93	=93	=93	=93	=93	=93	=93	=93	=93	=93	=93	=93	=93
8A	8a	16ff#	16aa	2r	4dd	4dd	2r	2r	2A	2A	8ff#	8aa	8aa	8aa
.	.	16ff#	16aa	.	.	.	.	.	.	.	.	.	.	.
8A	8a	16dd	16ff#	.	.	.	.	.	.	.	8dd	8ff#	8ff#	8ff#
.	.	16dd	16ff#	.	.	.	.	.	.	.	.	.	.	.
8A	8a	16ff#	16aa	.	4ryy	4r	.	.	.	.	8ff#	8aa	8aa	8aa
.	.	16ff#	16aa	.	.	.	.	.	.	.	.	.	.	.
8A	8a	16dd	16ff#	.	.	.	.	.	.	.	8dd	8ff#	8ff#	8ff#
.	.	16dd	16ff#	.	.	.	.	.	.	.	.	.	.	.
=94	=94	=94	=94	=94	=94	=94	=94	=94	=94	=94	=94	=94	=94	=94
8A	8a	16ee	16gg	2r	2r	2r	2r	2r	2AA	2AA	8ee	8gg	8gg	8gg
.	.	16ee	16gg	.	.	.	.	.	.	.	.	.	.	.
8A	8a	16cc#	16ee	.	.	.	.	.	.	.	8cc#	8ee	8ee	8ee
.	.	16cc#	16ee	.	.	.	.	.	.	.	.	.	.	.
8A	8a	16ee	16gg	.	.	.	.	.	.	.	8ee	8gg	8gg	8gg
.	.	16ee	16gg	.	.	.	.	.	.	.	.	.	.	.
8A	8a	16cc#	16ee	.	.	.	.	.	.	.	8cc#	8ee	8ee	8ee
.	.	16cc#	16ee	.	.	.	.	.	.	.	.	.	.	.
=95	=95	=95	=95	=95	=95	=95	=95	=95	=95	=95	=95	=95	=95	=95
4D	4d	4dd	16ff#	4D	4dd	4dd	2r	2r	4D	4D	4dd	4ff#	4ff#	4ff#
.	.	.	16aa	.	.	.	.	.	.	.	.	.	.	.
.	.	.	16ddd	.	.	.	.	.	.	.	.	.	.	.
.	.	.	16aa	.	.	.	.	.	.	.	.	.	.	.
8r	8r	8r	16ff#	4r	4ryy	4r	.	.	8r	8r	8ryy	8r	8r	8r
.	.	.	16aa	.	.	.	.	.	.	.	.	.	.	.
8A	8e	8e 8cc#	16gg	.	.	.	.	.	8A	8A	8ee	8gg	8ccc#	8ccc#
.	.	.	16aa	.	.	.	.	.	.	.	.	.	.	.
=96	=96	=96	=96	=96	=96	=96	=96	=96	=96	=96	=96	=96	=96	=96
4D	4d	4d 4dd	16ff#	4D	4dd	4dd	2r	2r	4D	4D	4dd	4ff#	4ddd	4ddd
.	.	.	16aa	.	.	.	.	.	.	.	.	.	.	.
.	.	.	16ddd	.	.	.	.	.	.	.	.	.	.	.
.	.	.	16aa	.	.	.	.	.	.	.	.	.	.	.
8r	8r	8r	16ff#	4r	4ryy	4r	.	.	8r	8r	8ryy	8r	8r	8r
.	.	.	16aa	.	.	.	.	.	.	.	.	.	.	.
8A	8e	8e 8cc#	16gg	.	.	.	.	.	8A	8A	8ee	8gg	8ccc#	8ccc#
.	.	.	16aa	.	.	.	.	.	.	.	.	.	.	.
=97	=97	=97	=97	=97	=97	=97	=97	=97	=97	=97	=97	=97	=97	=97
8D	8d	8d 8dd	16ff#	4D	4dd	4dd	2r	2r	8D	8D	8dd	8ff#	8ddd	8ddd
.	.	.	16aa	.	.	.	.	.	.	.	.	.	.	.
8A	8e	8e 8cc#	16gg	.	.	.	.	.	8A	8A	8ee	8gg	8ccc#	8ccc#
.	.	.	16aa	.	.	.	.	.	.	.	.	.	.	.
8D	8d	8f# 8dd	16ff#	4r	4ryy	4r	.	.	8D	8D	8dd	8ff#	8ddd	8ddd
.	.	.	16aa	.	.	.	.	.	.	.	.	.	.	.
8A	8e	8e 8cc#	16gg	.	.	.	.	.	8A	8A	8ee	8gg	8ccc#	8ccc#
.	.	.	16aa	.	.	.	.	.	.	.	.	.	.	.
=98	=98	=98	=98	=98	=98	=98	=98	=98	=98	=98	=98	=98	=98	=98
4D	4d	4d 4dd	4ff#	4D	4dd	4dd	2r	2r	4D	4D	4dd	4ff#	4ddd	4ddd
4D	4d	4d 4a 4ff#	4d 4ff# 4ddd	4D	4dd	4dd	.	.	4D	4D	4a	4ff#	4ddd	4ddd
=99	=99	=99	=99	=99	=99	=99	=99	=99	=99	=99	=99	=99	=99	=99
4D	4d	4d 4a 4ff#	4d 4ff# 4ddd	4D	4dd	4dd	2r	2r	4D	4D	4d	4ff#	4ddd	4ddd
4r	4r	4r	4r	4r	4ryy	4r	.	.	4r	4r	4ryy	4r	4r	4r
=100	=100	=100	=100	=100	=100	=100	=100	=100	=100	=100	=100	=100	=100	=100
4Cn	4cn	4cn	4cn	2r	2r	2r	2r	2r	2r	2r	2r	2r	2r	2r
4C	4c	4c	4c	.	.	.	.	.	.	.	.	.	.	.
=101	=101	=101	=101	=101	=101	=101	=101	=101	=101	=101	=101	=101	=101	=101
4C	4c	4c	4c	2r	2r	2r	2r	2r	2r	2r	2r	2r	2r	2r
4r	4r	4r	8r	.	.	.	.	.	.	.	.	.	.	.
.	.	.	16A	.	.	.	.	.	.	.	.	.	.	.
.	.	.	16B	.	.	.	.	.	.	.	.	.	.	.
=102	=102	=102	=102	=102	=102	=102	=102	=102	=102	=102	=102	=102	=102	=102
4FF#	4D	4A	4c	2r	2r	2r	2r	2r	2r	2r	2r	2r	2r	2r
4FF#	4D	4A	4c	.	.	.	.	.	.	.	.	.	.	.
=103	=103	=103	=103	=103	=103	=103	=103	=103	=103	=103	=103	=103	=103	=103
4FF#	4D	4A	4c	2r	2r	2r	2r	2r	2ryy	4r	2r	2r	2r	2r
4r	4r	4r	8r	.	.	.	.	.	.	8r	.	.	.	.
.	.	.	16d	.	.	.	.	.	.	16D	.	.	.	.
.	.	.	16g	.	.	.	.	.	.	16G	.	.	.	.
=104	=104	=104	=104	=104	=104	=104	=104	=104	=104	=104	=104	=104	=104	=104
8G	8d	8B 8d	4b	2r	2r	2r	2r	2r	2ryy	4B	2r	2r	2r	2r
8r	8r	8r	.	.	.	.	.	.	.	.	.	.	.	.
8D	8c	8A 8f#	8cc	.	.	.	.	.	.	8c	.	.	.	.
8r	8r	8r	8a'	.	.	.	.	.	.	8A'	.	.	.	.
=105	=105	=105	=105	=105	=105	=105	=105	=105	=105	=105	=105	=105	=105	=105
8GG	8B	8G 8g	8g'	2r	2r	2r	2r	2r	2ryy	8G'	2r	2r	2r	2r
8r	8r	8r	8g'	.	.	.	.	.	.	8G'	.	.	.	.
8r	4r	4r	8g'	.	.	.	.	.	.	8G'	.	.	.	.
8G	.	.	8b	.	.	.	.	.	.	8B	.	.	.	.
=106	=106	=106	=106	=106	=106	=106	=106	=106	=106	=106	=106	=106	=106	=106
8F#	2r	2d	8a	2r	2r	2r	2r	2r	2ryy	8A	2r	2r	2r	2r
8A	.	.	8cc	.	.	.	.	.	.	8c	.	.	.	.
8G	.	.	8b	.	.	.	.	.	.	8B	.	.	.	.
8B	.	.	8dd'	.	.	.	.	.	.	8d'	.	.	.	.
=107	=107	=107	=107	=107	=107	=107	=107	=107	=107	=107	=107	=107	=107	=107
8A	2r	8e	8dd	2r	2r	2r	2r	2r	2ryy	8d	2r	2r	2r	2r
8D	.	8f#	8cc	.	.	.	.	.	.	8c	.	.	.	.
8G	.	8g'	8b'	.	.	.	.	.	.	8B'	.	.	.	.
8r	.	8r	16d	.	.	.	.	.	.	16D	.	.	.	.
.	.	.	16a	.	.	.	.	.	.	16A	.	.	.	.
=108	=108	=108	=108	=108	=108	=108	=108	=108	=108	=108	=108	=108	=108	=108
4F#	4d	4a	4cc	2r	2r	2r	2r	2r	2ryy	4c	2r	2r	2r	2r
8r	8r	8r	8dd	.	.	.	.	.	.	8d	.	.	.	.
8G	8d	8g	8b'	.	.	.	.	.	.	8B'	.	.	.	.
=109	=109	=109	=109	=109	=109	=109	=109	=109	=109	=109	=109	=109	=109	=109
4D	4d	4f#	8a'	2r	2r	2r	2r	2r	2ryy	8A'	2r	2r	2r	2r
.	.	.	8a'	.	.	.	.	.	.	8A'	.	.	.	.
8r	8r	8r	8a'	.	.	.	.	.	.	8A'	.	.	.	.
8c	8a	8f#	8ee	.	.	.	.	.	.	8e	.	.	.	.
=110	=110	=110	=110	=110	=110	=110	=110	=110	=110	=110	=110	=110	=110	=110
8B	8g	8g	8dd	2r	2r	2r	2r	2r	2ryy	8d	2r	2r	2r	2r
8c	8e	8a	8cc	.	.	.	.	.	.	8c	.	.	.	.
8d	8d	8g	8b	.	.	.	.	.	.	8B	.	.	.	.
8D	8c	8f#	8a	.	.	.	.	.	.	8A	.	.	.	.
=111	=111	=111	=111	=111	=111	=111	=111	=111	=111	=111	=111	=111	=111	=111
4G	4B	8g	8g	4GG	2g	2g	2b	2gg	4r	8G	2b	2gg	2gg	2gg
.	.	8r	8g'	.	.	.	.	.	.	8G'	.	.	.	.
8r	8r	8r	8g'	4r	.	.	.	.	8r	8G'	.	.	.	.
8e	8ee	16cc	8r	.	.	.	.	.	8e	8e	.	.	.	.
.	.	16b	.	.	.	.	.	.	.	.	.	.	.	.
=112	=112	=112	=112	=112	=112	=112	=112	=112	=112	=112	=112	=112	=112	=112
8F#	8f#	8a	16dd	4D	2dd	[2dd	2dd	2aa	8F#	8F#	[2dd	2aa	2ddd	2ddd
.	.	.	16ee	.	.	.	.	.	.	.	.	.	.	.
8F#	8f#	8a	16ff#	.	.	.	.	.	8F#	8F#	.	.	.	.
.	.	.	16gg	.	.	.	.	.	.	.	.	.	.	.
8F#	8f#	8a	16aa	4r	.	.	.	.	8F#	8F#	.	.	.	.
.	.	.	16bb	.	.	.	.	.	.	.	.	.	.	.
8F#	8f#	8a	16ccc	.	.	.	.	.	8F#	8F#	.	.	.	.
.	.	.	16aa	.	.	.	.	.	.	.	.	.	.	.
=113	=113	=113	=113	=113	=113	=113	=113	=113	=113	=113	=113	=113	=113	=113
4G	4g	16dd	16bb	4GG	2g	2dd_	2gg	2bb	4G	4G	2dd_	2bb	2bb	2bb
.	.	16ee	16ccc	.	.	.	.	.	.	.	.	.	.	.
.	.	16dd	16bb	.	.	.	.	.	.	.	.	.	.	.
.	.	16cc	16aa	.	.	.	.	.	.	.	.	.	.	.
4r	4r	8b	8gg	4r	.	.	.	.	4ryy	4r	.	.	.	.
.	.	16cc	8eee	.	.	.	.	.	.	.	.	.	.	.
.	.	16b	.	.	.	.	.	.	.	.	.	.	.	.
=114	=114	=114	=114	=114	=114	=114	=114	=114	=114	=114	=114	=114	=114	=114
16D	16d	16a	8ff#	4D	2dd	2dd_	2dd	2aa	16D	16D	2dd_	2ff#	2aa	2aa
16E	16e	16g	.	.	.	.	.	.	16E	16E	.	.	.	.
16F#	16f#	16f#	8ff#	.	.	.	.	.	16F#	16F#	.	.	.	.
16G	16g	16e	.	.	.	.	.	.	16G	16G	.	.	.	.
16A	16a	8d	8ff#	4r	.	.	.	.	16A	16A	.	.	.	.
16B	16b	.	.	.	.	.	.	.	16B	16B	.	.	.	.
16c	16cc	8d	8ff#	.	.	.	.	.	16c	16c	.	.	.	.
16A	16a	.	.	.	.	.	.	.	16A	16A	.	.	.	.
=115	=115	=115	=115	=115	=115	=115	=115	=115	=115	=115	=115	=115	=115	=115
16B	16b	16dd	4gg	4GG	2g	2dd]	2gg	[2bb	16B	16B	2dd]	2gg	[2bb	[2bb
16c	16cc	16ee	.	.	.	.	.	.	16c	16c	.	.	.	.
16B	16b	16dd	.	.	.	.	.	.	16B	16B	.	.	.	.
16A	16a	16cc	.	.	.	.	.	.	16A	16A	.	.	.	.
8G	8g	8b	8r	4r	.	.	.	.	8G	8G	.	.	.	.
8B	8b	8g	16g	.	.	.	.	.	8B	8B	.	.	.	.
.	.	.	16a	.	.	.	.	.	.	.	.	.	.	.
=116	=116	=116	=116	=116	=116	=116	=116	=116	=116	=116	=116	=116	=116	=116
8D#	8d#	8f#	16b	2r	2r	2r	2bb	2bb_	2D#	2D#	2ff#	2aa	2bb_	2bb_
.	.	.	16cc#	.	.	.	.	.	.	.	.	.	.	.
8D#	8d#	8f#	16dd#	.	.	.	.	.	.	.	.	.	.	.
.	.	.	16ee	.	.	.	.	.	.	.	.	.	.	.
8D#	8d#	8f#	16ff#	.	.	.	.	.	.	.	.	.	.	.
.	.	.	16gg	.	.	.	.	.	.	.	.	.	.	.
8D#	8d#	8f#	16aa	.	.	.	.	.	.	.	.	.	.	.
.	.	.	16ff#	.	.	.	.	.	.	.	.	.	.	.
=117	=117	=117	=117	=117	=117	=117	=117	=117	=117	=117	=117	=117	=117	=117
4E	4e	16b	16gg	2r	2r	2r	[2gg	2bb]	2E	2E	2ee	2gg	2bb_	2bb_
.	.	16cc	16aa	.	.	.	.	.	.	.	.	.	.	.
.	.	16b	16gg	.	.	.	.	.	.	.	.	.	.	.
.	.	16a	16ff#	.	.	.	.	.	.	.	.	.	.	.
4r	8r	8g	8ee	.	.	.	.	.	.	.	.	.	.	.
.	16B	16B	8gg	.	.	.	.	.	.	.	.	.	.	.
.	16A	16A	.	.	.	.	.	.	.	.	.	.	.	.
=118	=118	=118	=118	=118	=118	=118	=118	=118	=118	=118	=118	=118	=118	=118
2r	8G	16G	8b	4GG	2g	2dd	2gg_	2bb	2G	2G	2dd	2ffn	2bb]	2bb]
.	.	16A	.	.	.	.	.	.	.	.	.	.	.	.
.	8G	16B	8b	.	.	.	.	.	.	.	.	.	.	.
.	.	16c	.	.	.	.	.	.	.	.	.	.	.	.
.	8G	16d	8b	4r	.	.	.	.	.	.	.	.	.	.
.	.	16e	.	.	.	.	.	.	.	.	.	.	.	.
.	8G	16fn	8gg	.	.	.	.	.	.	.	.	.	.	.
.	.	16d	.	.	.	.	.	.	.	.	.	.	.	.
=119	=119	=119	=119	=119	=119	=119	=119	=119	=119	=119	=119	=119	=119	=119
2r	4c	16e	8cc	4GG	2cc	2ee	4gg]	4ccc	4e	4e	2cc	2ee	2ccc	2ccc
.	.	16fn	.	.	.	.	.	.	.	.	.	.	.	.
.	.	16e	8cc	.	.	.	.	.	.	.	.	.	.	.
.	.	16d	.	.	.	.	.	.	.	.	.	.	.	.
.	8r	16c	8cc	4r	.	.	4ryy	4r	4c	4c	.	.	.	.
.	.	16ee	.	.	.	.	.	.	.	.	.	.	.	.
.	16e	16dd	8gg	.	.	.	.	.	.	.	.	.	.	.
.	16fn	16cc	.	.	.	.	.	.	.	.	.	.	.	.
=120	=120	=120	=120	=120	=120	=120	=120	=120	=120	=120	=120	=120	=120	=120
4r	8g	16b	8dd	4GG	2g	2dd	[2gg	2bb	2g	2g	2b	2dd	2ffn	2ffn
.	.	16cc	.	.	.	.	.	.	.	.	.	.	.	.
.	8g	16b	8dd	.	.	.	.	.	.	.	.	.	.	.
.	.	16a	.	.	.	.	.	.	.	.	.	.	.	.
8r	8g	16g	8dd	4r	.	.	.	.	.	.	.	.	.	.
.	.	16fn	.	.	.	.	.	.	.	.	.	.	.	.
8BB	8g	16e	16gg	.	.	.	.	.	.	.	.	.	.	.
.	.	16d	16ffn	.	.	.	.	.	.	.	.	.	.	.
=121	=121	=121	=121	=121	=121	=121	=121	=121	=121	=121	=121	=121	=121	=121
8C	8g	16c	16ee	4GG	4cc	4ee	4gg]	4ccc	4c	4c	4cc	4ee	4ee	4ee
.	.	16d	16ffn	.	.	.	.	.	.	.	.	.	.	.
4c	4c	16e	16gg	.	.	.	.	.	.	.	.	.	.	.
.	.	16fn	16ff	.	.	.	.	.	.	.	.	.	.	.
.	.	8g	16ee	4r	4ryy	4r	4ryy	4r	8r	8r	8ryy	8r	8r	8r
.	.	.	16ff	.	.	.	.	.	.	.	.	.	.	.
8B-	8B-	8g#	16dd	.	.	.	.	.	8B-	8B-	8gg#	8dd	8gg#	8gg#
.	.	.	16ee	.	.	.	.	.	.	.	.	.	.	.
=122	=122	=122	=122	=122	=122	=122	=122	=122	=122	=122	=122	=122	=122	=122
4A	4A	8a	16cc#	2r	2ee	2ee	2r	2r	4A	4A	4aa	4cc#	4aa	4aa
.	.	.	16dd	.	.	.	.	.	.	.	.	.	.	.
.	.	16A	16ee	.	.	.	.	.	.	.	.	.	.	.
.	.	16B	16cc#	.	.	.	.	.	.	.	.	.	.	.
8r	8r	8c#'	16a	.	.	.	.	.	8r	8r	8ryy	8r	8r	8r
.	.	.	16bb-	.	.	.	.	.	.	.	.	.	.	.
8C#	8C#	8e	16aa	.	.	.	.	.	8c#	8c#	8ee	8ggn	8aa	8aa
.	.	.	16gg	.	.	.	.	.	.	.	.	.	.	.
=123	=123	=123	=123	=123	=123	=123	=123	=123	=123	=123	=123	=123	=123	=123
8D	8D	16d	16ff#X	2r	4dd	4dd	2r	2r	4d	4d	4ff#	4ff#X	4a	4a
.	.	16e	16gg	.	.	.	.	.	.	.	.	.	.	.
4d	4d	16f#X	16aa	.	.	.	.	.	.	.	.	.	.	.
.	.	16g	16gg	.	.	.	.	.	.	.	.	.	.	.
.	.	8a	16ff#	.	4ryy	4r	.	.	8r	8r	8ryy	8r	8r	8r
.	.	.	16gg	.	.	.	.	.	.	.	.	.	.	.
8cn	8cn	8a#	16ee	.	.	.	.	.	8cn	8cn	8aa#	8ee	8aa#	8aa#
.	.	.	16ff#	.	.	.	.	.	.	.	.	.	.	.
=124	=124	=124	=124	=124	=124	=124	=124	=124	=124	=124	=124	=124	=124	=124
4B	4B	8b	16dd#	2r	2r	2r	2r	2r	4B	4B	4bb	4dd#	4bb	4bb
.	.	.	16ee	.	.	.	.	.	.	.	.	.	.	.
.	.	16B	16ff#	.	.	.	.	.	.	.	.	.	.	.
.	.	16c#	16dd#	.	.	.	.	.	.	.	.	.	.	.
8r	8r	8d#'	16b	.	.	.	.	.	8r	8r	8ryy	8r	8r	8r
.	.	.	16dd#	.	.	.	.	.	.	.	.	.	.	.
8D#	8f#	8b'	16ff#	.	.	.	.	.	8D#	8D#	8ff#	8aan	8bb	8bb
.	.	.	16aa	.	.	.	.	.	.	.	.	.	.	.
=125	=125	=125	=125	=125	=125	=125	=125	=125	=125	=125	=125	=125	=125	=125
4E	4B	16g	16gg	2r	2r	2r	2r	2r	4E	4E	4gg	4gg	4b	4b
.	.	16a	16aa	.	.	.	.	.	.	.	.	.	.	.
.	.	16g	16gg	.	.	.	.	.	.	.	.	.	.	.
.	.	16f#	16ff#	.	.	.	.	.	.	.	.	.	.	.
8r	8r	16e	16ee	.	.	.	.	.	8r	8r	8ryy	8r	8r	8r
.	.	16b	16b	.	.	.	.	.	.	.	.	.	.	.
8A	8a	16cc#	16cc#	.	.	.	.	.	8A	8A	8dd#	8ff#	8bb	8bb
.	.	16dd#	16dd#	.	.	.	.	.	.	.	.	.	.	.
=126	=126	=126	=126	=126	=126	=126	=126	=126	=126	=126	=126	=126	=126	=126
8G	8g	16ee	16ee	2r	2r	2r	2r	2r	8G	8G	8ee	8gg	8b	8b
.	.	16b	16b	.	.	.	.	.	.	.	.	.	.	.
8A	8a	16cc#	16cc#	.	.	.	.	.	8A	8A	8dd#	8ff#	8bb	8bb
.	.	16dd#	16dd#	.	.	.	.	.	.	.	.	.	.	.
8G	8g	16ee	16ee	.	.	.	.	.	8G	8G	8ee	8gg	8b	8b
.	.	16b	16b	.	.	.	.	.	.	.	.	.	.	.
8A	8a	16cc#	16cc#	.	.	.	.	.	8A	8A	8dd#	8ff#	8bb	8bb
.	.	16dd#	16dd#	.	.	.	.	.	.	.	.	.	.	.
=127	=127	=127	=127	=127	=127	=127	=127	=127	=127	=127	=127	=127	=127	=127
4G	4g	16ee	16ee	2r	2r	2r	2r	2r	4G	4G	8ee	8gg	8b	8b
.	.	16ff#	16ff#	.	.	.	.	.	.	.	.	.	.	.
.	.	16gg	16gg	.	.	.	.	.	.	.	8ryy	8r	8r	8r
.	.	16ff#	16ff#	.	.	.	.	.	.	.	.	.	.	.
8r	8r	16ee	16ee	.	.	.	.	.	8r	8r	8ryy	8r	8r	8r
.	.	16b	16b	.	.	.	.	.	.	.	.	.	.	.
8A	8a	16cc#	16cc#	.	.	.	.	.	8A	8A	8dd#	8ff#	8bb	8bb
.	.	16dd#	16dd#	.	.	.	.	.	.	.	.	.	.	.
=128	=128	=128	=128	=128	=128	=128	=128	=128	=128	=128	=128	=128	=128	=128
8G	8g	16ee	16ee	2r	2r	2r	2r	2r	8G	8G	8ee	8ee	8b	8b
.	.	16b	16b	.	.	.	.	.	.	.	.	.	.	.
8A	8a	16cc#	16cc#	.	.	.	.	.	8A	8A	8dd#	8ff#	8bb	8bb
.	.	16dd#	16dd#	.	.	.	.	.	.	.	.	.	.	.
8G	8g	16ee	16ee	.	.	.	.	.	8G	8G	8ee	8ee	8b	8b
.	.	16b	16b	.	.	.	.	.	.	.	.	.	.	.
8A	8a	16cc#	16cc#	.	.	.	.	.	8A	8A	8dd#	8ff#	8bb	8bb
.	.	16dd#	16dd#	.	.	.	.	.	.	.	.	.	.	.
=129	=129	=129	=129	=129	=129	=129	=129	=129	=129	=129	=129	=129	=129	=129
4G	4g	16ee	16ee	2r	2r	2r	2r	2r	4G	4G	4ee	4ee	4b	4b
.	.	16ff#	16ff#	.	.	.	.	.	.	.	.	.	.	.
.	.	16gg	16gg	.	.	.	.	.	.	.	.	.	.	.
.	.	16aa	16aa	.	.	.	.	.	.	.	.	.	.	.
8r	8r	16gg	16gg	.	.	.	.	.	8r	8r	8ryy	8r	4r	4r
.	.	16ff#	16ff#	.	.	.	.	.	.	.	.	.	.	.
16G	16g	16ee	16ee	.	.	.	.	.	16G	16G	16ee	16ee	.	.
16F#	16f#	16ddn	16ddn	.	.	.	.	.	16F#	16F#	16dd	16ddn	.	.
=130	=130	=130	=130	=130	=130	=130	=130	=130	=130	=130	=130	=130	=130	=130
4E	4e	16cc#	16cc#	2r	2r	2r	2r	2r	4E	4E	4cc#	4cc#	2r	2r
.	.	16dd	16dd	.	.	.	.	.	.	.	.	.	.	.
.	.	16ee	16ee	.	.	.	.	.	.	.	.	.	.	.
.	.	16ff#	16ff#	.	.	.	.	.	.	.	.	.	.	.
8r	8r	16ee	16ee	.	.	.	.	.	8r	8r	8ryy	8r	.	.
.	.	16dd	16dd	.	.	.	.	.	.	.	.	.	.	.
8E	8E	16cc#	16cc#	.	.	.	.	.	8E	8E	16cc#	16cc#	.	.
.	.	16b	16b	.	.	.	.	.	.	.	16b	16b	.	.
=131	=131	=131	=131	=131	=131	=131	=131	=131	=131	=131	=131	=131	=131	=131
8F#	16F#	16a#	16a#	2r	2r	2r	2r	2r	8F#	8F#	4a#	4a#	2r	2r
.	16F#	16b	16b	.	.	.	.	.	.	.	.	.	.	.
8F#	16F#	16cc#	16cc#	.	.	.	.	.	8F#	8F#	.	.	.	.
.	16F#	16a#	16a#	.	.	.	.	.	.	.	.	.	.	.
8F#	16F#	8f#	8f#	.	.	.	.	.	8F#	8F#	8ryy	8r	.	.
.	16F#	.	.	.	.	.	.	.	.	.	.	.	.	.
8r	16F#	8A#X	8ff#	.	.	.	.	.	8r	8r	8a#	8ff#	.	.
.	16F#	.	.	.	.	.	.	.	.	.	.	.	.	.
=132	=132	=132	=132	=132	=132	=132	=132	=132	=132	=132	=132	=132	=132	=132
8F#	16F#	16B	8g#	2r	2r	2r	2r	2r	8F#	8F#	2b	2gg#	2dd	2dd
.	16F#	16d	.	.	.	.	.	.	.	.	.	.	.	.
8F#	16F#	16B	8g#	.	.	.	.	.	8F#	8F#	.	.	.	.
.	16F#	16d	.	.	.	.	.	.	.	.	.	.	.	.
8F#	16F#	16B	8g#	.	.	.	.	.	8F#	8F#	.	.	.	.
.	16F#	16d	.	.	.	.	.	.	.	.	.	.	.	.
8r	16F#	16B	8ff#	.	.	.	.	.	8r	8r	.	.	.	.
.	16F#	16d	.	.	.	.	.	.	.	.	.	.	.	.
=133	=133	=133	=133	=133	=133	=133	=133	=133	=133	=133	=133	=133	=133	=133
8F#	16F#	16c#	8a#	2r	2r	2r	2r	2r	8F#	8F#	4.cc#	2aa#	2cc#	2cc#
.	16F#	16e	.	.	.	.	.	.	.	.	.	.	.	.
8F#	16F#	16c#	8a#	.	.	.	.	.	8F#	8F#	.	.	.	.
.	16F#	16e	.	.	.	.	.	.	.	.	.	.	.	.
8F#	16F#	16c#	8a#	.	.	.	.	.	8F#	8F#	.	.	.	.
.	16F#	16e	.	.	.	.	.	.	.	.	.	.	.	.
8r	16F#	16c#	8ff#	.	.	.	.	.	8r	8r	8ee	.	.	.
.	16F#	16e	.	.	.	.	.	.	.	.	.	.	.	.
=134	=134	=134	=134	=134	=134	=134	=134	=134	=134	=134	=134	=134	=134	=134
8G	16G	16B	8b	2r	2r	2r	2gg	2bb	2B	[2d	2dd	2bb	2b	2b
.	16G	16d	.	.	.	.	.	.	.	.	.	.	.	.
8G	16G	16B	8b	.	.	.	.	.	.	.	.	.	.	.
.	16G	16d	.	.	.	.	.	.	.	.	.	.	.	.
8G	16G	16B	8b	.	.	.	.	.	.	.	.	.	.	.
.	16G	16d	.	.	.	.	.	.	.	.	.	.	.	.
8r	16G	16B	8bb	.	.	.	.	.	.	.	.	.	.	.
.	16G	16d	.	.	.	.	.	.	.	.	.	.	.	.
=135	=135	=135	=135	=135	=135	=135	=135	=135	=135	=135	=135	=135	=135	=135
8G	16G	16B	8e#	2r	2r	2r	2bb	[2ddd	2B	2d_	2b	2ee#	2bb	[2ddd
.	16G	16d	.	.	.	.	.	.	.	.	.	.	.	.
8G	16G	16B	8e#	.	.	.	.	.	.	.	.	.	.	.
.	16G	16d	.	.	.	.	.	.	.	.	.	.	.	.
8G	8G	16B	8e#	.	.	.	.	.	.	.	.	.	.	.
.	.	16d	.	.	.	.	.	.	.	.	.	.	.	.
8G	8g	16B	8bb	.	.	.	.	.	.	.	.	.	.	.
.	.	16d	.	.	.	.	.	.	.	.	.	.	.	.
=136	=136	=136	=136	=136	=136	=136	=136	=136	=136	=136	=136	=136	=136	=136
8F#	8f#	16B	8f#	2r	2r	2r	2bb	2ddd_	2B	2d_	8ff#	8ff#	2bb	2ddd_
.	.	16d	.	.	.	.	.	.	.	.	.	.	.	.
8F#	8f#	16B	8bb	.	.	.	.	.	.	.	8ff#	8ff#	.	.
.	.	16d	.	.	.	.	.	.	.	.	.	.	.	.
8G	8g	16B	8g	.	.	.	.	.	.	.	8gg	8gg	.	.
.	.	16d	.	.	.	.	.	.	.	.	.	.	.	.
8G	8g	16B	8bb	.	.	.	.	.	.	.	8gg	8gg	.	.
.	.	16d	.	.	.	.	.	.	.	.	.	.	.	.
=137	=137	=137	=137	=137	=137	=137	=137	=137	=137	=137	=137	=137	=137	=137
8F#	8f#	16B	8f#	2r	2r	2r	2bb	2ddd_	2B	2d_	8ff#	8ff#	2bb	2ddd_
.	.	16d	.	.	.	.	.	.	.	.	.	.	.	.
8F#	8f#	16B	8bb	.	.	.	.	.	.	.	8ff#	8ff#	.	.
.	.	16d	.	.	.	.	.	.	.	.	.	.	.	.
8E#	8e#	16B	8e#	.	.	.	.	.	.	.	8ee#	8ee#	.	.
.	.	16d	.	.	.	.	.	.	.	.	.	.	.	.
8E#	8e#	16B	8bb	.	.	.	.	.	.	.	8ee#	8ee#	.	.
.	.	16d	.	.	.	.	.	.	.	.	.	.	.	.
=138	=138	=138	=138	=138	=138	=138	=138	=138	=138	=138	=138	=138	=138	=138
8F#	8f#	16B	8f#'	2r	2r	2r	2bb	2ddd_	2B	2d_	8ff#	8ff#	2bb	2ddd_
.	.	16d	.	.	.	.	.	.	.	.	.	.	.	.
8F#	8f#	16B	16f#	.	.	.	.	.	.	.	4dd	4bb	.	.
.	.	16d	16b	.	.	.	.	.	.	.	.	.	.	.
8F#	8f#	16B	8dd'	.	.	.	.	.	.	.	.	.	.	.
.	.	16d	.	.	.	.	.	.	.	.	.	.	.	.
8F#	8f#	16B	16b	.	.	.	.	.	.	.	8dd	8bb	.	.
.	.	16d	16dd	.	.	.	.	.	.	.	.	.	.	.
=139	=139	=139	=139	=139	=139	=139	=139	=139	=139	=139	=139	=139	=139	=139
8F#	8f#	16B	8ff#'	2r	2r	2r	2bb	2ddd_	2B	2d_	8dd	8bb	2bb	2ddd_
.	.	16d	.	.	.	.	.	.	.	.	.	.	.	.
8F#	8f#	16B	16dd	.	.	.	.	.	.	.	4dd	4bb	.	.
.	.	16d	16ff#	.	.	.	.	.	.	.	.	.	.	.
8F#	8f#	16B	8bb'	.	.	.	.	.	.	.	.	.	.	.
.	.	16d	.	.	.	.	.	.	.	.	.	.	.	.
8F#	8f#	16B	16ff#	.	.	.	.	.	.	.	8dd	8bb	.	.
.	.	16d	16bb	.	.	.	.	.	.	.	.	.	.	.
=140	=140	=140	=140	=140	=140	=140	=140	=140	=140	=140	=140	=140	=140	=140
4F#	4f#	4B	4ddd	2r	2r	2r	2bb	2ddd_	2B	2d_	4bb	4ddd	4bb	4ddd]
4r	4r	4r	8r	.	.	.	.	.	.	.	4ryy	4r	4ryy	4r
.	.	.	16b	.	.	.	.	.	.	.	.	.	.	.
.	.	.	16dd	.	.	.	.	.	.	.	.	.	.	.
=141	=141	=141	=141	=141	=141	=141	=141	=141	=141	=141	=141	=141	=141	=141
4F#	4f#	4d 4b	4ff#	2r	2r	2r	4bb	4ddd]	4B	4d]	4dd	4bb	4bb	4ddd
4r	4r	4r	8r	.	.	.	4ryy	4r	4ryy	4r	4ryy	4r	4ryy	4r
.	.	.	16d	.	.	.	.	.	.	.	.	.	.	.
.	.	.	16f#	.	.	.	.	.	.	.	.	.	.	.
=142	=142	=142	=142	=142	=142	=142	=142	=142	=142	=142	=142	=142	=142	=142
4F#	4f#	4d	8b'	2r	2r	2r	2r	2r	2r	2r	2r	2r	2r	2r
.	.	.	8b'	.	.	.	.	.	.	.	.	.	.	.
4r	4r	4r	8b'	.	.	.	.	.	.	.	.	.	.	.
.	.	.	16d	.	.	.	.	.	.	.	.	.	.	.
.	.	.	16f#	.	.	.	.	.	.	.	.	.	.	.
=143	=143	=143	=143	=143	=143	=143	=143	=143	=143	=143	=143	=143	=143	=143
2r	2r	2r	8b'	2r	2r	2r	2r	2r	2r	2r	2r	2r	2r	2r
.	.	.	8b'	.	.	.	.	.	.	.	.	.	.	.
.	.	.	8b'	.	.	.	.	.	.	.	.	.	.	.
.	.	.	16d	.	.	.	.	.	.	.	.	.	.	.
.	.	.	16f#	.	.	.	.	.	.	.	.	.	.	.
=144	=144	=144	=144	=144	=144	=144	=144	=144	=144	=144	=144	=144	=144	=144
2r	2r	2r	8b	2r	2r	2r	2r	2r	2r	2r	2r	2r	2r	2r
.	.	.	8r	.	.	.	.	.	.	.	.	.	.	.
.	.	.	8r	.	.	.	.	.	.	.	.	.	.	.
.	.	.	16d	.	.	.	.	.	.	.	.	.	.	.
.	.	.	16f#	.	.	.	.	.	.	.	.	.	.	.
=145	=145	=145	=145	=145	=145	=145	=145	=145	=145	=145	=145	=145	=145	=145
2r	2r	2r	8b	2r	2r	2r	2r	2r	2ryy	4r	2r	2r	2ryy	4r
.	.	.	8r	.	.	.	.	.	.	.	.	.	.	.
.	.	.	8r	.	.	.	.	.	.	8r	.	.	.	8r
.	.	.	16d	.	.	.	.	.	.	16D	.	.	.	16dd
.	.	.	16g	.	.	.	.	.	.	16G	.	.	.	16gg
=146	=146	=146	=146	=146	=146	=146	=146	=146	=146	=146	=146	=146	=146	=146
8G	8d	8B 8d	4b	2r	2r	2r	2r	2r	2ryy	4B	2r	2r	2ryy	4bb
8r	8r	8r	.	.	.	.	.	.	.	.	.	.	.	.
8D	8c	8A 8f#	8cc	.	.	.	.	.	.	8c	.	.	.	8ccc
8r	8r	8r	8a'	.	.	.	.	.	.	8A'	.	.	.	8aa'
=147	=147	=147	=147	=147	=147	=147	=147	=147	=147	=147	=147	=147	=147	=147
8GG	8B	8G 8g	8g'	2r	2r	2r	2r	2r	2ryy	8G'	2r	2r	2ryy	8gg'
8r	8r	8r	8g'	.	.	.	.	.	.	8G'	.	.	.	8gg'
8r	4r	4r	8g'	.	.	.	.	.	.	8G'	.	.	.	8gg'
8G	.	.	8b	.	.	.	.	.	.	8B	.	.	.	8bb
=148	=148	=148	=148	=148	=148	=148	=148	=148	=148	=148	=148	=148	=148	=148
8F#	2r	2d	8a	2r	2r	2r	2r	2r	2ryy	8A	2r	2r	2ryy	8aa
8A	.	.	8cc	.	.	.	.	.	.	8c	.	.	.	8ccc
8G	.	.	8b	.	.	.	.	.	.	8B	.	.	.	8bb
8B	.	.	8dd'	.	.	.	.	.	.	8d	.	.	.	8ddd
=149	=149	=149	=149	=149	=149	=149	=149	=149	=149	=149	=149	=149	=149	=149
8A	2r	8e	8dd	2r	2r	2r	2r	2r	2ryy	8d	2r	2r	2ryy	8ddd
8D	.	8f#	8cc	.	.	.	.	.	.	8c	.	.	.	8ccc
8G'	.	8g'	8b'	.	.	.	.	.	.	8B'	.	.	.	8bb'
8r	.	8r	16d	.	.	.	.	.	.	16D	.	.	.	16dd
.	.	.	16a	.	.	.	.	.	.	16A	.	.	.	16aa
=150	=150	=150	=150	=150	=150	=150	=150	=150	=150	=150	=150	=150	=150	=150
4F#	4d	4a	4cc	2r	2r	2r	2r	2r	2ryy	4c	2r	2r	2ryy	4ccc
8r	8r	8r	8dd	.	.	.	.	.	.	8d	.	.	.	8ddd
8G	8d	8g	8b'	.	.	.	.	.	.	8B'	.	.	.	8bb'
=151	=151	=151	=151	=151	=151	=151	=151	=151	=151	=151	=151	=151	=151	=151
4D	4d	4f#	8a'	2r	2r	2r	2r	2r	2ryy	8A'	2r	2r	2ryy	8aa'
.	.	.	8a'	.	.	.	.	.	.	8A'	.	.	.	8aa'
8r	8r	8r	8a'	.	.	.	.	.	.	8A'	.	.	.	8aa'
8c	8a	8f#	8ee	.	.	.	.	.	.	8e	.	.	.	8eee
=152	=152	=152	=152	=152	=152	=152	=152	=152	=152	=152	=152	=152	=152	=152
8B	8g	8g	8dd	2r	2r	2r	2r	2r	2ryy	8d	2r	2r	2ryy	8ddd
8c	8e	8a	8cc	.	.	.	.	.	.	8c	.	.	.	8ccc
8d	8d	8g	8b	.	.	.	.	.	.	8B	.	.	.	8bb
8D	8c	8f#	8a	.	.	.	.	.	.	8A	.	.	.	8aa
=153	=153	=153	=153	=153	=153	=153	=153	=153	=153	=153	=153	=153	=153	=153
8G	8B	8g	8g	2r	2r	2r	2r	2r	2ryy	8G	4ryy	4r	4r	8gg
8r	8r	8r	8g'	.	.	.	.	.	.	8G'	.	.	.	8gg
4r	4r	4r	8g'	.	.	.	.	.	.	8G'	8ryy	8r	8r	8gg
.	.	.	16d	.	.	.	.	.	.	8r	16dd	16dd	16dd	16dd
.	.	.	16g	.	.	.	.	.	.	.	16gg	16gg	16gg	16gg
=154	=154	=154	=154	=154	=154	=154	=154	=154	=154	=154	=154	=154	=154	=154
4G	4g	8G 8d 8b-	4b-	4GG	4g	4dd	4g	4gg	4G	4G	4gg	4bb-	4bb-	4bb-
.	.	8r	.	.	.	.	.	.	.	.	.	.	.	.
4D	4c	8c 8f#X	8cc	4D	4dd	4dd	4dd	4aa	4D	4D	8aa	8ccc	8ccc	8ccc
.	.	8r	8a	.	.	.	.	.	.	.	8ff#X	8aa	8aa	8aa
=155	=155	=155	=155	=155	=155	=155	=155	=155	=155	=155	=155	=155	=155	=155
8E-	8B-	8B- 8g	8g	4GG	4g	4dd	4g	4gg	4E-	4E-	4gg	4gg	4gg	4gg
8E-	8B-	8B- 8g	8g	.	.	.	.	.	.	.	.	.	.	.
8E-	8B-	8B- 8g	8g	4r	4ryy	4r	4ryy	4r	8r	8r	8ryy	8r	8r	8r
8e-Xz	8e-z	8gz	8ccz	.	.	.	.	.	8e-Xz	8e-Xz	8cc	8cccz	8cccz	8cccz
=156	=156	=156	=156	=156	=156	=156	=156	=156	=156	=156	=156	=156	=156	=156
8d	8d	8fn	8bn	2r	2r	2r	2r	2r	8d	8d	8bn	8bbn	8bbn	8bbn
8d	8d	8f	8b	.	.	.	.	.	8r	8r	8ryy	8r	8r	8r
8d	8d	8f	8b	.	.	.	.	.	8r	8r	8ryy	8r	8r	8r
8Bnz	8Gz	8ddz	8ffnz	.	.	.	.	.	8Bnz	8Bnz	8dd	8ffnz	8ffnz	8ffnz
=157	=157	=157	=157	=157	=157	=157	=157	=157	=157	=157	=157	=157	=157	=157
8c	8c	8g	8ee-	2r	2r	2r	2r	2r	8c	8c	8g	8ee-	8ee-	8ee-
8c	8c	8g	8ee-	.	.	.	.	.	8r	8r	8ryy	8r	8r	8r
8c	8c	8g	8ee-	.	.	.	.	.	8r	8r	8ryy	8r	8r	8r
8dz	8dz	8fnz	8b-z	.	.	.	.	.	8dz	8dz	8b-	8bb-Xz	8bb-z	8bb-z
=158	=158	=158	=158	=158	=158	=158	=158	=158	=158	=158	=158	=158	=158	=158
8c	8c	8e-	8a	2r	2r	2r	2r	2r	8c	8c	8a	8aa	8aa	8aa
8c	8c	8e-	8a	.	.	.	.	.	8r	8r	8ryy	8r	8r	8r
8c	8c	8e-	8a	.	.	.	.	.	8r	8r	8ryy	8r	8r	8r
8Az	8Fnz	8ccz	8ee-z	.	.	.	.	.	8Az	8Az	8cc	8ee-z	8ee-z	8ee-z
=159	=159	=159	=159	=159	=159	=159	=159	=159	=159	=159	=159	=159	=159	=159
8B-	8B-	8fn	8dd	2r	2r	2r	2r	2r	8B-	8B-	8fn	8dd	8dd	8dd
8B-	8B-	8f	8dd	.	.	.	.	.	8r	8r	8ryy	8r	8r	8r
8B-	8B-	8f	8dd	.	.	.	.	.	4r	4r	8ryy	8r	8r	8r
8r	8r	8b-	8bb-	.	.	.	.	.	.	.	8dd	8bb-	8bb-	8bb-
=160	=160	=160	=160	=160	=160	=160	=160	=160	=160	=160	=160	=160	=160	=160
8FFn	8Fn	8e- 8a	16aa	2r	2r	2r	2r	2r	8FFn	8FFn	8ee-	8aa	8aa	8aa
.	.	.	16bb-	.	.	.	.	.	.	.	.	.	.	.
8Fn	8fn	8r	16ccc	.	.	.	.	.	8Fn	8Fn	8ryy	8r	8r	8r
.	.	.	16aa	.	.	.	.	.	.	.	.	.	.	.
8AA	8A	8A 8fn 8ee-X	16ee-	.	.	.	.	.	8AA	8AA	8cc	8ee-X	8ee-	8ee-
.	.	.	16ffn	.	.	.	.	.	.	.	.	.	.	.
8A	8a	8r	16gg	.	.	.	.	.	8A	8A	8ryy	8r	8r	8r
.	.	.	16ee-	.	.	.	.	.	.	.	.	.	.	.
=161	=161	=161	=161	=161	=161	=161	=161	=161	=161	=161	=161	=161	=161	=161
8BB-	8B-	8B- 8fn 8dd	16dd	2r	2r	2r	2r	2r	8BB-	8BB-	8b-	8dd	8dd	8dd
.	.	.	16ee-	.	.	.	.	.	.	.	.	.	.	.
8B-X	8b-X	8r	16ffn	.	.	.	.	.	8B-X	8B-X	8ryy	8r	8r	8r
.	.	.	16dd	.	.	.	.	.	.	.	.	.	.	.
8D	8d	8d 8b-X 8bb-X	16b-	.	.	.	.	.	8D	8D	8fn	8bb-X	8bb-	8bb-
.	.	.	16cc	.	.	.	.	.	.	.	.	.	.	.
8d	8dd	8r	16dd	.	.	.	.	.	8d	8d	8ryy	8r	8r	8r
.	.	.	16b-	.	.	.	.	.	.	.	.	.	.	.
=162	=162	=162	=162	=162	=162	=162	=162	=162	=162	=162	=162	=162	=162	=162
8Fn	8fn	8e- 8cc 8aa	16a	2r	2r	2r	2r	2r	8Fn	8Fn	8e-	8aa	8ccc	8ccc
.	.	.	16b-	.	.	.	.	.	.	.	.	.	.	.
8fn	8ffn	8r	16cc	.	.	.	.	.	8fn	8fn	8ryy	8r	8r	8r
.	.	.	16a	.	.	.	.	.	.	.	.	.	.	.
8AA	8A	8A 8fn 8ee-X	16fn	.	.	.	.	.	8AA	8AA	8cc	8ee-X	8ee-	8ee-
.	.	.	16g	.	.	.	.	.	.	.	.	.	.	.
8F	8f	8r	16f	.	.	.	.	.	8F	8F	8ryy	8r	8r	8r
.	.	.	16e-	.	.	.	.	.	.	.	.	.	.	.
=163	=163	=163	=163	=163	=163	=163	=163	=163	=163	=163	=163	=163	=163	=163
8BB-	8B-	8fn 8dd	16d	2r	2r	2r	2r	2r	8BB-	8BB-	4fn	4dd	4dd	4dd
.	.	.	16e-	.	.	.	.	.	.	.	.	.	.	.
4B-Xz	4B-z	16d	16fn	.	.	.	.	.	4B-Xz	4B-Xz	.	.	.	.
.	.	16e-	16e-	.	.	.	.	.	.	.	.	.	.	.
.	.	8fn	16d	.	.	.	.	.	.	.	8ryy	8r	8r	8r
.	.	.	16e-	.	.	.	.	.	.	.	.	.	.	.
8A-	8A-	8f#	16c	.	.	.	.	.	8A-	8A-	8f#	8cc	8ff#X	8ff#X
.	.	.	16d	.	.	.	.	.	.	.	.	.	.	.
=164	=164	=164	=164	=164	=164	=164	=164	=164	=164	=164	=164	=164	=164	=164
4G	4G	4g	16Bn	2r	2r	2r	2r	2r	4G	4G	4g	4bn	4gg	4gg
.	.	.	16c	.	.	.	.	.	.	.	.	.	.	.
.	.	.	16A	.	.	.	.	.	.	.	.	.	.	.
.	.	.	16B	.	.	.	.	.	.	.	.	.	.	.
8r	8r	8r	16G	.	.	.	.	.	8r	8r	8ryy	8r	8r	8r
.	.	.	16a-	.	.	.	.	.	.	.	.	.	.	.
8BBn	8Bn	8G 8d	16g	.	.	.	.	.	8BBn	8BBn	8dd	8ffn	8ffn	8ffn
.	.	.	16fn	.	.	.	.	.	.	.	.	.	.	.
=165	=165	=165	=165	=165	=165	=165	=165	=165	=165	=165	=165	=165	=165	=165
8C	8c	8G 8e-	16e-	2r	2r	2r	2r	2r	8C	8C	4g	4ee-	4ee-	4ee-
.	.	.	16fn	.	.	.	.	.	.	.	.	.	.	.
4cz	4cz	16e-	16g	.	.	.	.	.	4cz	4cz	.	.	.	.
.	.	16fn	16f	.	.	.	.	.	.	.	.	.	.	.
.	.	8g	16en	.	.	.	.	.	.	.	8ryy	8r	8r	8r
.	.	.	16f	.	.	.	.	.	.	.	.	.	.	.
8B-	8B-	8g#	16e	.	.	.	.	.	8B-	8B-	8g#	8dd	8gg#	8gg#
.	.	.	16d	.	.	.	.	.	.	.	.	.	.	.
=166	=166	=166	=166	=166	=166	=166	=166	=166	=166	=166	=166	=166	=166	=166
4A	4A	4a	16c#	2r	2r	2r	2r	2r	4A	4A	4a	4cc#	4aa	4aa
.	.	.	16d	.	.	.	.	.	.	.	.	.	.	.
.	.	.	16Bn	.	.	.	.	.	.	.	.	.	.	.
.	.	.	16c#	.	.	.	.	.	.	.	.	.	.	.
8r	8r	8r	16A	.	.	.	.	.	8r	8r	8ryy	8r	8r	8r
.	.	.	16c#	.	.	.	.	.	.	.	.	.	.	.
8C#	8c#	8A 8en	16e	.	.	.	.	.	8C#	8C#	8ee	8ggn	8ggn	8ggn
.	.	.	16g	.	.	.	.	.	.	.	.	.	.	.
=167	=167	=167	=167	=167	=167	=167	=167	=167	=167	=167	=167	=167	=167	=167
16D	4d	4A 4f#X	16f#X	4D	4dd	4dd'	2d	[2dd	4D	4D	4dd	4ff#X	4ff#X	4ff#X
16D	.	.	16g	.	.	.	.	.	.	.	.	.	.	.
16D	.	.	16f#	.	.	.	.	.	.	.	.	.	.	.
16D	.	.	16e	.	.	.	.	.	.	.	.	.	.	.
16D	8r	8r	8d	4r	4ryy	4r	.	.	4F#	4A	8ryy	8r	8r	8r
16D	.	.	.	.	.	.	.	.	.	.	.	.	.	.
16D	8F#	8f#	8dd	.	.	.	.	.	.	.	8f#X	8dd	8dd	8dd
16D	.	.	.	.	.	.	.	.	.	.	.	.	.	.
=168	=168	=168	=168	=168	=168	=168	=168	=168	=168	=168	=168	=168	=168	=168
16D	16G	8g	8ee-	4D	2r	2r	2d	2dd_	2G	2B-	4g	2ee-	8ee-	8ee-
16D	16B-	.	.	.	.	.	.	.	.	.	.	.	.	.
16D	16G	16G	8e-X	.	.	.	.	.	.	.	.	.	8e-X	8e-X
16D	16B-	16B-	.	.	.	.	.	.	.	.	.	.	.	.
16D	16G	16G	8e-	4r	.	.	.	.	.	.	8r	.	8e-	8e-
16D	16B-	16B-	.	.	.	.	.	.	.	.	.	.	.	.
16D	16G	16G	8ee-	.	.	.	.	.	.	.	8g	.	8ee-	8ee-
16D	16B-	16B-	.	.	.	.	.	.	.	.	.	.	.	.
=169	=169	=169	=169	=169	=169	=169	=169	=169	=169	=169	=169	=169	=169	=169
16D	16A	16A	8ff#X	4D	4dd	4dd	2d	2dd_	2A	2c	4a	2ff#X	8ff#X	8ff#X
16D	16c	16c	.	.	.	.	.	.	.	.	.	.	.	.
16D	16A	16A	8f#	.	.	.	.	.	.	.	.	.	8f#	8f#
16D	16c	16c	.	.	.	.	.	.	.	.	.	.	.	.
16D	16A	16A	8f#	4r	4ryy	4r	.	.	.	.	8r	.	8f#	8f#
16D	16c	16c	.	.	.	.	.	.	.	.	.	.	.	.
16D	16A	16A	8ff#	.	.	.	.	.	.	.	8a	.	8ff#	8ff#
16D	16c	16c	.	.	.	.	.	.	.	.	.	.	.	.
=170	=170	=170	=170	=170	=170	=170	=170	=170	=170	=170	=170	=170	=170	=170
16D	16G	16G	8gg	4D	4dd	4dd	2d	2dd]	2G	[2B-	2b-	2gg	8gg	8gg
16D	16B-	16B-	.	.	.	.	.	.	.	.	.	.	.	.
16D	16G	16G	8g	.	.	.	.	.	.	.	.	.	8g	8g
16D	16B-	16B-	.	.	.	.	.	.	.	.	.	.	.	.
16D	16G	16G	8g	4r	4ryy	4r	.	.	.	.	.	.	8g	8g
16D	16B-	16B-	.	.	.	.	.	.	.	.	.	.	.	.
16D	16G	16G	8gg	.	.	.	.	.	.	.	.	.	8gg	8gg
16D	16B-	16B-	.	.	.	.	.	.	.	.	.	.	.	.
=171	=171	=171	=171	=171	=171	=171	=171	=171	=171	=171	=171	=171	=171	=171
16E-	16G	16G	8bb-	4GG	2g	2g	2g	2gg	2G	2B-]	2gg	2ccc#	4.bb-	4.bb-
16E-	16B-	16B-	.	.	.	.	.	.	.	.	.	.	.	.
16E-	16G	16G	8cc#	.	.	.	.	.	.	.	.	.	.	.
16E-	16B-	16B-	.	.	.	.	.	.	.	.	.	.	.	.
16E-	8G	8G	8cc#	4r	.	.	.	.	.	.	.	.	.	.
16E-	.	.	.	.	.	.	.	.	.	.	.	.	.	.
16E-	8e-	8g	8ccc#X	.	.	.	.	.	.	.	.	.	8gg	8gg
16E-	.	.	.	.	.	.	.	.	.	.	.	.	.	.
=172	=172	=172	=172	=172	=172	=172	=172	=172	=172	=172	=172	=172	=172	=172
16D	8d	16f#X	8ddd	4D	[2dd	2dd	2d	[2dd	4.D	4.d	2dd	2ddd	2ddd	2ddd
16D	.	16g	.	.	.	.	.	.	.	.	.	.	.	.
16D	16a	16a	8dd	.	.	.	.	.	.	.	.	.	.	.
16D	16g	16g	.	.	.	.	.	.	.	.	.	.	.	.
8D	16f#X	16f#	8dd	4r	.	.	.	.	.	.	.	.	.	.
.	16g	16g	.	.	.	.	.	.	.	.	.	.	.	.
8dz	16a	16a	8dddz	.	.	.	.	.	8dz	8dz	.	.	.	.
.	16g	16g	.	.	.	.	.	.	.	.	.	.	.	.
=173	=173	=173	=173	=173	=173	=173	=173	=173	=173	=173	=173	=173	=173	=173
8D	16f#	16f#	8dd	4D	2dd_	2dd	2d	2dd_	8D	8D	4ff#	4cccn	4ccc	4ccc
.	16g	16g	.	.	.	.	.	.	.	.	.	.	.	.
8cz	16a	16a	8cccz	.	.	.	.	.	8cz	8cz	.	.	.	.
.	16f#	16f#	.	.	.	.	.	.	.	.	.	.	.	.
8D	16g	16g	8dd	4D	.	.	.	.	8D	8D	4gg	4bb-	4bb-	4bb-
.	16a	16a	.	.	.	.	.	.	.	.	.	.	.	.
8B-z	16b-	16b-	8bb-z	.	.	.	.	.	8B-z	8B-z	.	.	.	.
.	16g	16g	.	.	.	.	.	.	.	.	.	.	.	.
=174	=174	=174	=174	=174	=174	=174	=174	=174	=174	=174	=174	=174	=174	=174
8D	16f#	16f#	8dd	4D	2dd]	2dd	2d	2dd_	8D	8D	4aa	4aa	4aa	4aa
.	16a	16a	.	.	.	.	.	.	.	.	.	.	.	.
8Az	16f#	16f#	8aaz	.	.	.	.	.	8Az	8Az	.	.	.	.
.	16d	16d	.	.	.	.	.	.	.	.	.	.	.	.
8D	16c#	16c#	8dd	4D	.	.	.	.	8D	8D	4cc#	4gg	4gg	4gg
.	16d	16d	.	.	.	.	.	.	.	.	.	.	.	.
8Gz	16e	16e	8gg	.	.	.	.	.	8Gz	8Gz	.	.	.	.
.	16c#	16c#	.	.	.	.	.	.	.	.	.	.	.	.
=175	=175	=175	=175	=175	=175	=175	=175	=175	=175	=175	=175	=175	=175	=175
8D	8d	8d	16ff#	4D	8dd	8dd	2d	2dd_	8D	8D	8dd	8ff#	8ff#	8ff#
.	.	.	16gg	.	.	.	.	.	.	.	.	.	.	.
8r	8r	8r	16aa	.	8ryy	8r	.	.	8r	8r	8ryy	8r	8r	8r
.	.	.	16ff#	.	.	.	.	.	.	.	.	.	.	.
8D	8d	8f# 8a	16dd	4D	8dd	8dd	.	.	8D	8D	8dd	8ddd	8ff#	8ff#
.	.	.	16ee-	.	.	.	.	.	.	.	.	.	.	.
8r	8r	8r	16dd	.	8ryy	8r	.	.	8r	8r	8ryy	8r	8r	8r
.	.	.	16cc	.	.	.	.	.	.	.	.	.	.	.
=176	=176	=176	=176	=176	=176	=176	=176	=176	=176	=176	=176	=176	=176	=176
8D	8d	8g 8b-	16b-	8D	8g	8gg	2d	2dd_	8D	8D	8b-	8bb-X	8gg	8gg
.	.	.	16cc	.	.	.	.	.	.	.	.	.	.	.
8r	8r	8r	16b-	8r	8ryy	8r	.	.	8r	8r	8ryy	8r	8r	8r
.	.	.	16a	.	.	.	.	.	.	.	.	.	.	.
8D	8c#	8c#	16g	8D	8g	8gg	.	.	8D	8D	8g	8gg	8ccc#	8ccc#
.	.	.	16b-	.	.	.	.	.	.	.	.	.	.	.
8r	8r	8r	16a	8r	8ryy	8r	.	.	8r	8r	8ryy	8r	8r	8r
.	.	.	16g	.	.	.	.	.	.	.	.	.	.	.
=177	=177	=177	=177	=177	=177	=177	=177	=177	=177	=177	=177	=177	=177	=177
8D	8d	8d	16f#	4D	4dd	4dd	4d	4dd]	4D	4D	4d	4dd	4ddd	4ddd
.	.	.	16g	.	.	.	.	.	.	.	.	.	.	.
8r	8r	8r	16a	.	.	.	.	.	.	.	.	.	.	.
.	.	.	16f#	.	.	.	.	.	.	.	.	.	.	.
4r	4r	4r	16d	4r	4ryy	4r	4ryy	4r	4r	4r	4ryy	4r	4r	4r
.	.	.	16c#	.	.	.	.	.	.	.	.	.	.	.
.	.	.	16d	.	.	.	.	.	.	.	.	.	.	.
.	.	.	16en	.	.	.	.	.	.	.	.	.	.	.
=178	=178	=178	=178	=178	=178	=178	=178	=178	=178	=178	=178	=178	=178	=178
8D	8F#	8d	16f#	2r	2r	2r	2r	2r	2r	2r	2r	2r	2r	2r
.	.	.	16g	.	.	.	.	.	.	.	.	.	.	.
8r	8r	8r	16a	.	.	.	.	.	.	.	.	.	.	.
.	.	.	16f#	.	.	.	.	.	.	.	.	.	.	.
4r	4r	4r	16d	.	.	.	.	.	.	.	.	.	.	.
.	.	.	16c#	.	.	.	.	.	.	.	.	.	.	.
.	.	.	16d	.	.	.	.	.	.	.	.	.	.	.
.	.	.	16e	.	.	.	.	.	.	.	.	.	.	.
=179	=179	=179	=179	=179	=179	=179	=179	=179	=179	=179	=179	=179	=179	=179
8D	8F#	8d	16f#	2r	2r	2r	2r	2r	2r	2r	2r	2r	2r	2r
.	.	.	16g	.	.	.	.	.	.	.	.	.	.	.
8r	8r	8r	16a	.	.	.	.	.	.	.	.	.	.	.
.	.	.	16f#	.	.	.	.	.	.	.	.	.	.	.
4r	4r	4r	16d	.	.	.	.	.	.	.	.	.	.	.
.	.	.	16e	.	.	.	.	.	.	.	.	.	.	.
.	.	.	16f#	.	.	.	.	.	.	.	.	.	.	.
.	.	.	16g	.	.	.	.	.	.	.	.	.	.	.
=180	=180	=180	=180	=180	=180	=180	=180	=180	=180	=180	=180	=180	=180	=180
2r	2r	2r	16a	2r	2r	2r	2r	2r	2r	2r	2r	2r	2r	2r
.	.	.	16d	.	.	.	.	.	.	.	.	.	.	.
.	.	.	16f#	.	.	.	.	.	.	.	.	.	.	.
.	.	.	16g	.	.	.	.	.	.	.	.	.	.	.
.	.	.	16a	.	.	.	.	.	.	.	.	.	.	.
.	.	.	16d	.	.	.	.	.	.	.	.	.	.	.
.	.	.	16f#	.	.	.	.	.	.	.	.	.	.	.
.	.	.	16g	.	.	.	.	.	.	.	.	.	.	.
=181	=181	=181	=181	=181	=181	=181	=181	=181	=181	=181	=181	=181	=181	=181
2r	2r	2r	16a	2r	2r	2r	2r	2r	2ryy	4r	2r	2r	2ryy	4r
.	.	.	16d	.	.	.	.	.	.	.	.	.	.	.
.	.	.	16f#	.	.	.	.	.	.	.	.	.	.	.
.	.	.	16g	.	.	.	.	.	.	.	.	.	.	.
.	.	.	16a	.	.	.	.	.	.	8r	.	.	.	8r
.	.	.	16d	.	.	.	.	.	.	.	.	.	.	.
.	.	.	16g	.	.	.	.	.	.	16G	.	.	.	16gg
.	.	.	16a	.	.	.	.	.	.	16A	.	.	.	16aa
=182	=182	=182	=182	=182	=182	=182	=182	=182	=182	=182	=182	=182	=182	=182
8G	8d	8Bn 8d	4bn	2r	2r	2r	2r	2r	2ryy	4B	2r	2r	2ryy	4bb
8r	8r	8r	.	.	.	.	.	.	.	.	.	.	.	.
8D	8c	8A 8f#	8cc	.	.	.	.	.	.	8c	.	.	.	8ccc
8r	8r	8r	8a'	.	.	.	.	.	.	8A'	.	.	.	8aa'
=183	=183	=183	=183	=183	=183	=183	=183	=183	=183	=183	=183	=183	=183	=183
8GG	8Bn	8G 8g	8g'	2r	2r	2r	2r	2r	2ryy	8G'	2r	2r	2ryy	8gg'
8r	8r	8r	8g'	.	.	.	.	.	.	8G'	.	.	.	8gg'
8r	4r	4r	8g'	.	.	.	.	.	.	8G'	.	.	.	8gg'
8G	.	.	8b	.	.	.	.	.	.	8B	.	.	.	8bb
=184	=184	=184	=184	=184	=184	=184	=184	=184	=184	=184	=184	=184	=184	=184
8F#	2r	2d	8a	2r	2r	2r	2r	2r	2ryy	8A	2r	2r	2ryy	8aa
8A	.	.	8cc	.	.	.	.	.	.	8c	.	.	.	8ccc
8G	.	.	8b	.	.	.	.	.	.	8B	.	.	.	8bb
8B	.	.	8dd'	.	.	.	.	.	.	8d'	.	.	.	8ddd'
=185	=185	=185	=185	=185	=185	=185	=185	=185	=185	=185	=185	=185	=185	=185
8A	2r	8e	8dd	2r	2r	2r	2r	2r	2ryy	8d	2r	2r	2ryy	8ddd
8D	.	8f#	8cc	.	.	.	.	.	.	8c	.	.	.	8ccc
8G'	.	8g'	8b'	.	.	.	.	.	.	8B'	.	.	.	8bb'
8r	.	8r	16d	.	.	.	.	.	.	16D	.	.	.	16dd
.	.	.	16a	.	.	.	.	.	.	16A	.	.	.	16aa
=186	=186	=186	=186	=186	=186	=186	=186	=186	=186	=186	=186	=186	=186	=186
4F#	4d	4a	4cc	2r	2r	2r	2r	2r	2ryy	4c	2r	2r	2ryy	4ccc
8r	8r	8r	8dd	.	.	.	.	.	.	8d	.	.	.	8ddd
8G	8d	8g	8b'	.	.	.	.	.	.	8B'	.	.	.	8bb'
=187	=187	=187	=187	=187	=187	=187	=187	=187	=187	=187	=187	=187	=187	=187
4D	4d	4f#	8a'	2r	2r	2r	2r	2r	2ryy	8A'	2r	2r	2ryy	8aa'
.	.	.	8a'	.	.	.	.	.	.	8A'	.	.	.	8aa'
8r	8r	8r	8a'	.	.	.	.	.	.	8A'	.	.	.	8aa'
8c	8a	8f#	8ee	.	.	.	.	.	.	8e	.	.	.	8eee
=188	=188	=188	=188	=188	=188	=188	=188	=188	=188	=188	=188	=188	=188	=188
8B	8g	8g	8dd	2r	2r	2r	2r	2r	2ryy	8d	2r	2r	2ryy	8ddd
8c	8e	8a	8cc	.	.	.	.	.	.	8c	.	.	.	8ccc
8d	8d	8g	8b	.	.	.	.	.	.	8B	.	.	.	8bb
8D	8c	8f#	8a	.	.	.	.	.	.	8A	.	.	.	8aa
=189	=189	=189	=189	=189	=189	=189	=189	=189	=189	=189	=189	=189	=189	=189
8G	8B	8g	8g	2r	2r	2r	2r	2r	2ryy	8G	4ryy	4r	2ryy	8gg
8r	8r	8r	8g'	.	.	.	.	.	.	8G'	.	.	.	8gg'
4r	4r	4r	8g'	.	.	.	.	.	.	8G'	8ryy	8r	.	8gg'
.	.	.	8r	.	.	.	.	.	.	8r	8g	8dd	.	8bb'
=190	=190	=190	=190	=190	=190	=190	=190	=190	=190	=190	=190	=190	=190	=190
2r	2r	2r	2r	2r	2r	2r	2r	2r	2r	2r	4f#	4dd	2ryy	8aa
.	.	.	.	.	.	.	.	.	.	.	.	.	.	8ddd
.	.	.	.	.	.	.	.	.	.	.	8ryy	8r	.	8dd'
.	.	.	.	.	.	.	.	.	.	.	8e	8cc#	.	8gg'
=191	=191	=191	=191	=191	=191	=191	=191	=191	=191	=191	=191	=191	=191	=191
4r	4r	4r	4r	2r	2r	2r	2r	2r	2r	2r	4d	4dd	2ryy	16ff#
.	.	.	.	.	.	.	.	.	.	.	.	.	.	16gg
.	.	.	.	.	.	.	.	.	.	.	.	.	.	16aa
.	.	.	.	.	.	.	.	.	.	.	.	.	.	16ff#
8r	8r	8r	8r	.	.	.	.	.	.	.	4ryy	4r	.	8dd
8c	8c	8g	8ee	.	.	.	.	.	.	.	.	.	.	8r
=192	=192	=192	=192	=192	=192	=192	=192	=192	=192	=192	=192	=192	=192	=192
4B	4B	4g	8dd	2r	2r	2r	2r	2r	2r	2r	2r	2r	2r	2r
.	.	.	8gg	.	.	.	.	.	.	.	.	.	.	.
8r	8r	8r	8g'	.	.	.	.	.	.	.	.	.	.	.
8A	8A	8f#	8cc'	.	.	.	.	.	.	.	.	.	.	.
=193	=193	=193	=193	=193	=193	=193	=193	=193	=193	=193	=193	=193	=193	=193
4G	4G	4g	16b	2r	2r	2r	2r	2r	2r	2r	2r	2r	2r	2r
.	.	.	16cc	.	.	.	.	.	.	.	.	.	.	.
.	.	.	16dd	.	.	.	.	.	.	.	.	.	.	.
.	.	.	16b	.	.	.	.	.	.	.	.	.	.	.
8r	8r	8r	8g'	.	.	.	.	.	.	.	.	.	.	.
8BB	8d	[8G	16g	.	.	.	.	.	.	.	.	.	.	.
.	.	.	16f#	.	.	.	.	.	.	.	.	.	.	.
=194	=194	=194	=194	=194	=194	=194	=194	=194	=194	=194	=194	=194	=194	=194
4C	4e	8G]	8e'	2r	2r	2r	2r	2r	2r	2r	2r	2r	2r	2r
.	.	4A	16a	.	.	.	.	.	.	.	.	.	.	.
.	.	.	16g	.	.	.	.	.	.	.	.	.	.	.
4D	4f#	.	8f#'	.	.	.	.	.	.	.	.	.	.	.
.	.	[8B	16b	.	.	.	.	.	.	.	.	.	.	.
.	.	.	16a	.	.	.	.	.	.	.	.	.	.	.
=195	=195	=195	=195	=195	=195	=195	=195	=195	=195	=195	=195	=195	=195	=195
4E	4g	8B]	8g'	2r	2r	2r	2r	2r	2r	2r	2r	2r	2r	2r
.	.	4c	16cc	.	.	.	.	.	.	.	.	.	.	.
.	.	.	16b	.	.	.	.	.	.	.	.	.	.	.
4F#	4a	.	8a'	.	.	.	.	.	.	.	.	.	.	.
.	.	[8d	16dd	.	.	.	.	.	.	.	.	.	.	.
.	.	.	16cc	.	.	.	.	.	.	.	.	.	.	.
=196	=196	=196	=196	=196	=196	=196	=196	=196	=196	=196	=196	=196	=196	=196
4.G	4b	8d]	8b	2r	2r	2r	2r	2r	2r	2r	2r	2r	2r	2r
.	.	8b	8gg	.	.	.	.	.	.	.	.	.	.	.
.	8r	8g	8ee	.	.	.	.	.	.	.	.	.	.	.
8E	8e	8g'	8cc#	.	.	.	.	.	.	.	.	.	.	.
=197	=197	=197	=197	=197	=197	=197	=197	=197	=197	=197	=197	=197	=197	=197
[2D	2d	2f#	8dd	2r	2r	2r	2r	2r	2r	2r	2r	2r	2r	2r
.	.	.	8aa	.	.	.	.	.	.	.	.	.	.	.
.	.	.	8ff#	.	.	.	.	.	.	.	.	.	.	.
.	.	.	8dd	.	.	.	.	.	.	.	.	.	.	.
=198	=198	=198	=198	=198	=198	=198	=198	=198	=198	=198	=198	=198	=198	=198
2D]	2e	2g	8cc#	2r	2r	2r	2r	2r	2r	2r	2r	2r	2r	2r
.	.	.	8gg	.	.	.	.	.	.	.	.	.	.	.
.	.	.	8ee	.	.	.	.	.	.	.	.	.	.	.
.	.	.	8cc#	.	.	.	.	.	.	.	.	.	.	.
=199	=199	=199	=199	=199	=199	=199	=199	=199	=199	=199	=199	=199	=199	=199
4D	4d	4A 4f#	16dd	4D	[2dd	[2dd	4dd	4dd	4D	4D	4dd	4dd	[2ddd	[2ddd
.	.	.	16ddd	.	.	.	.	.	.	.	.	.	.	.
.	.	.	16dd	.	.	.	.	.	.	.	.	.	.	.
.	.	.	16ddd	.	.	.	.	.	.	.	.	.	.	.
4r	4r	8r	16dd	4r	.	.	4ryy	4r	4r	4r	4r	8r	.	.
.	.	.	16ddd	.	.	.	.	.	.	.	.	.	.	.
.	.	16d	16dd	.	.	.	.	.	.	.	.	16dd	.	.
.	.	16g	16ddd	.	.	.	.	.	.	.	.	16gg	.	.
=200	=200	=200	=200	=200	=200	=200	=200	=200	=200	=200	=200	=200	=200	=200
2r	4g	4b	16dd	4GG	2dd_	2dd_	4gg	4bb	4G	4G	4gg	4bb	2ddd_	2ddd_
.	.	.	16ddd	.	.	.	.	.	.	.	.	.	.	.
.	.	.	16dd	.	.	.	.	.	.	.	.	.	.	.
.	.	.	16ddd	.	.	.	.	.	.	.	.	.	.	.
.	8a	8cc	16dd	4r	.	.	4aa	4ccc	8A	8A	8aa	8ccc	.	.
.	.	.	16ddd	.	.	.	.	.	.	.	.	.	.	.
.	8f#'	8a'	16dd	.	.	.	.	.	8F#'	8F#'	8ff#'	8aa'	.	.
.	.	.	16ddd	.	.	.	.	.	.	.	.	.	.	.
=201	=201	=201	=201	=201	=201	=201	=201	=201	=201	=201	=201	=201	=201	=201
4r	8d'	8f#'	16dd	4D	2dd_	2dd_	4dd	4aa	8D'	8D'	8dd'	8ff#'	2ddd_	2ddd_
.	.	.	16ddd	.	.	.	.	.	.	.	.	.	.	.
.	8d'	8f#'	16dd	.	.	.	.	.	8D'	8D'	8dd'	8ff#'	.	.
.	.	.	16ddd	.	.	.	.	.	.	.	.	.	.	.
8r	8d'	8f#'	16dd	4r	.	.	4ryy	4r	8D'	8D'	8dd'	8ff#'	.	.
.	.	.	16ddd	.	.	.	.	.	.	.	.	.	.	.
16D	16d	8r	16dd	.	.	.	.	.	16D	16D	8ryy	8r	.	.
16G	16g	.	16ddd	.	.	.	.	.	16G	16G	.	.	.	.
=202	=202	=202	=202	=202	=202	=202	=202	=202	=202	=202	=202	=202	=202	=202
4B	4b	4g	16dd	4GG	2dd_	2dd_	4gg	4bb	4B	4B	[2dd	4gg	2ddd_	2ddd_
.	.	.	16ddd	.	.	.	.	.	.	.	.	.	.	.
.	.	.	16dd	.	.	.	.	.	.	.	.	.	.	.
.	.	.	16ddd	.	.	.	.	.	.	.	.	.	.	.
8c	8cc	8a	16dd	4r	.	.	4aa	4ccc	8c	8c	.	8aa	.	.
.	.	.	16ddd	.	.	.	.	.	.	.	.	.	.	.
8A'	8a'	8f#'	16dd	.	.	.	.	.	8A'	8A'	.	8ff#'	.	.
.	.	.	16ddd	.	.	.	.	.	.	.	.	.	.	.
=203	=203	=203	=203	=203	=203	=203	=203	=203	=203	=203	=203	=203	=203	=203
8F#'	8f#'	8d'	16dd	4D	2dd]	2dd]	4dd	4aa	8F#'	8F#'	4dd]	8dd'	2ddd]	2ddd]
.	.	.	16ddd	.	.	.	.	.	.	.	.	.	.	.
8F#'	8f#'	8d'	16dd	.	.	.	.	.	8F#'	8F#'	.	8dd'	.	.
.	.	.	16ddd	.	.	.	.	.	.	.	.	.	.	.
8F#'	8f#'	8d'	8dd	4r	.	.	4ryy	4r	8F#'	8F#'	4r	8dd'	.	.
8r	8r	8r	16dd	.	.	.	.	.	8r	8r	.	16dd	.	.
.	.	.	16ff#	.	.	.	.	.	.	.	.	16ff#	.	.
=204	=204	=204	=204	=204	=204	=204	=204	=204	=204	=204	=204	=204	=204	=204
8BB	8B	2G 2d	4gg	4GG	2g	2dd	[2gg	2gg	2B	2B	2dd	4gg	4gg	4gg
8B	8B	.	.	.	.	.	.	.	.	.	.	.	.	.
8B	8B	.	8aa	8GG	.	.	.	.	.	.	.	8aa	8aa	8aa
8B	8B	.	8ffn'	8GG	.	.	.	.	.	.	.	8ffn'	8ffn'	8ffn'
=205	=205	=205	=205	=205	=205	=205	=205	=205	=205	=205	=205	=205	=205	=205
8c	8c	16e	16ee	4GG	4cc	4ee	4gg]	4gg	8c	8c	8ee	8ee	8ee	8ee
.	.	16e	16ee	.	.	.	.	.	.	.	.	.	.	.
8B	8B	16dd#	16ddd#	.	.	.	.	.	8B	8B	8dd#	8dd#	8ddd#	8ddd#
.	.	16dd#	16ddd#	.	.	.	.	.	.	.	.	.	.	.
8c	8c	16ee	16eee	4r	4ryy	4r	4ryy	4r	8c	8c	8ee	8ee	8eee	8eee
.	.	16ee	16eee	.	.	.	.	.	.	.	.	.	.	.
8B-	8B-	16g#	16dddn	.	.	.	.	.	8B-	8B-	8ddn	8gg#	8dddn	8dddn
.	.	16g#	16ddd	.	.	.	.	.	.	.	.	.	.	.
=206	=206	=206	=206	=206	=206	=206	=206	=206	=206	=206	=206	=206	=206	=206
8A	8A	16a	16ccc#	2r	2r	2r	2ryy	2r	4A	4A	4cc#	4aa	4ccc#	4ccc#
.	.	16a	16ccc#	.	.	.	.	.	.	.	.	.	.	.
8A	8A	16ee	16ccc#	.	.	.	.	.	.	.	.	.	.	.
.	.	16ee	16ccc#	.	.	.	.	.	.	.	.	.	.	.
8d	8d	16f#	16cccn	.	.	.	.	.	4D	4d	4a	4cccn	4cccn	4cccn
.	.	16f#	16ccc	.	.	.	.	.	.	.	.	.	.	.
8d	8d	16a	16ccc	.	.	.	.	.	.	.	.	.	.	.
.	.	16a	16ccc	.	.	.	.	.	.	.	.	.	.	.
=207	=207	=207	=207	=207	=207	=207	=207	=207	=207	=207	=207	=207	=207	=207
8G	8G	8g	8bb	2r	2r	2r	4ryy	4r	8G	8G	8dd	8bb	8bb	8bb
8r	8r	8r	8r	.	.	.	.	.	8ryy	8r	8ryy	8r	8r	8r
8C	8C	8cc 8aa	8cc 8aa	.	.	.	8aa	8ccc	8C	8C	8ccn	8aa	8aa	8aa
8r	8r	8r	8r	.	.	.	8ryy	8r	8ryy	8r	8ryy	8r	8r	8r
=208	=208	=208	=208	=208	=208	=208	=208	=208	=208	=208	=208	=208	=208	=208
8D	8D	8b 8gg	8b 8gg	8D	2r	2r	8gg	8bb	8D	8D	8b	8gg	8gg	8gg
8r	8r	8r	8r	8r	.	.	8ryy	8r	8ryy	8r	8ryy	8r	8r	8r
8D	8D	8a 8ff#	8a 8ff#	8D	.	.	8dd	8aa	8D	8D	8a	8ff#	8ff#	8ff#
8r	8r	8r	8r	8r	.	.	8ryy	8r	8ryy	8r	8ryy	8r	8r	8r
=209	=209	=209	=209	=209	=209	=209	=209	=209	=209	=209	=209	=209	=209	=209
2r	2r	2r	2r	2r	2r	2r	2r	2r	2r	2r	2r	2r	2r	2r
=210	=210	=210	=210	=210	=210	=210	=210	=210	=210	=210	=210	=210	=210	=210
4GG	8r	8r	4r	2r	2r	2r	2r	2r	2r	2r	2r	2r	2r	2r
.	8B	16B	.	.	.	.	.	.	.	.	.	.	.	.
.	.	16d	.	.	.	.	.	.	.	.	.	.	.	.
4r	8B	8g'	8r	.	.	.	.	.	.	.	.	.	.	.
.	8B	8g'	8gg	.	.	.	.	.	.	.	.	.	.	.
=211	=211	=211	=211	=211	=211	=211	=211	=211	=211	=211	=211	=211	=211	=211
4GG	8r	8r	8ff#	2r	2r	2r	2r	2r	2ryy	8r	2r	2r	2r	2r
.	8c	16c	8dd	.	.	.	.	.	.	8A	.	.	.	.
.	.	16d	.	.	.	.	.	.	.	.	.	.	.	.
4r	8c	8f#'	8cc	.	.	.	.	.	.	8A	.	.	.	.
.	8c	8f#'	8a	.	.	.	.	.	.	8A	.	.	.	.
=212	=212	=212	=212	=212	=212	=212	=212	=212	=212	=212	=212	=212	=212	=212
4GG	8r	8r	4.g	2r	2r	2r	2r	2r	2ryy	4B	2r	2r	2r	2r
.	8B	16B	.	.	.	.	.	.	.	.	.	.	.	.
.	.	16d	.	.	.	.	.	.	.	.	.	.	.	.
4r	8B	8g'	.	.	.	.	.	.	.	4r	.	.	.	.
.	8B	8g'	8gg	.	.	.	.	.	.	.	.	.	.	.
=213	=213	=213	=213	=213	=213	=213	=213	=213	=213	=213	=213	=213	=213	=213
4GG	8r	8r	8ff#	2r	2r	2r	2r	2r	2ryy	8r	2r	2r	2r	2r
.	8c	16c	8ddd	.	.	.	.	.	.	8A	.	.	.	.
.	.	16d	.	.	.	.	.	.	.	.	.	.	.	.
4r	8c	8f#'	8ddd'	.	.	.	.	.	.	8A	.	.	.	.
.	8c	8f#'	8ddd'	.	.	.	.	.	.	8A	.	.	.	.
=214	=214	=214	=214	=214	=214	=214	=214	=214	=214	=214	=214	=214	=214	=214
4GG	8r	8r	8.ddd	2r	2r	2r	2g	[2dd	2ryy	4B	2r	2r	2ryy	4r
.	8B	16B	.	.	.	.	.	.	.	.	.	.	.	.
.	.	16d	16bb	.	.	.	.	.	.	.	.	.	.	.
4r	8B	8g'	8gg'	.	.	.	.	.	.	4r	.	.	.	8r
.	8B	8g'	8gg'	.	.	.	.	.	.	.	.	.	.	8gg
=215	=215	=215	=215	=215	=215	=215	=215	=215	=215	=215	=215	=215	=215	=215
4GG	8r	8r	8ff#	2r	2r	2r	2g	2dd_	2ryy	8r	2r	2r	2ryy	8ff#
.	8c	16c	8dd	.	.	.	.	.	.	8A	.	.	.	8dd
.	.	16d	.	.	.	.	.	.	.	.	.	.	.	.
4r	8c	8f#'	8cc	.	.	.	.	.	.	8A	.	.	.	8cc
.	8c	8f#'	8a	.	.	.	.	.	.	8A	.	.	.	8a
=216	=216	=216	=216	=216	=216	=216	=216	=216	=216	=216	=216	=216	=216	=216
4GG	8r	8r	4.g	2r	2r	2r	2g	2dd_	2ryy	4B	2ryy	4r	2ryy	4.g
.	8B	16B	.	.	.	.	.	.	.	.	.	.	.	.
.	.	16d	.	.	.	.	.	.	.	.	.	.	.	.
4r	8B	8g'	.	.	.	.	.	.	.	4r	.	8r	.	.
.	8B	8g'	8gg	.	.	.	.	.	.	.	.	8gg	.	8gg
=217	=217	=217	=217	=217	=217	=217	=217	=217	=217	=217	=217	=217	=217	=217
4GG	8r	8r	8ff#	2r	2r	2r	2g	2dd_	2ryy	8r	2ryy	8ff#	2ryy	8ff#
.	8c	16c	8ddd	.	.	.	.	.	.	8A	.	8dd	.	8ddd
.	.	16d	.	.	.	.	.	.	.	.	.	.	.	.
4r	8c	8f#'	8ddd'	.	.	.	.	.	.	8A	.	8cc	.	8ddd'
.	8c	8f#'	8ddd'	.	.	.	.	.	.	8A	.	8a	.	8ddd'
=218	=218	=218	=218	=218	=218	=218	=218	=218	=218	=218	=218	=218	=218	=218
4GG	8r	8r	8.ddd	2r	2r	2r	2g	2dd]	2ryy	4B	2ryy	4g	2ryy	8.ddd
.	8B	16B	.	.	.	.	.	.	.	.	.	.	.	.
.	.	16d	16bb	.	.	.	.	.	.	.	.	.	.	16bb
4r	8B	8g'	8gg'	.	.	.	.	.	.	4r	.	4r	.	8gg'
.	8B	8g'	8gg'	.	.	.	.	.	.	.	.	.	.	8gg'
=219	=219	=219	=219	=219	=219	=219	=219	=219	=219	=219	=219	=219	=219	=219
4BB	8r	8r	8ffn	2r	2r	2r	2r	2r	2r	2r	2r	2r	2ryy	8fffn
.	8B	16G	8dd	.	.	.	.	.	.	.	.	.	.	8ddd
.	.	16B	.	.	.	.	.	.	.	.	.	.	.	.
4r	8B	8d'	8b	.	.	.	.	.	.	.	.	.	.	8bb
.	8B	8d'	8fn	.	.	.	.	.	.	.	.	.	.	8ffn
=220	=220	=220	=220	=220	=220	=220	=220	=220	=220	=220	=220	=220	=220	=220
4C	8r	8r	4.e	2r	2r	2r	2r	2r	2r	2r	2r	4r	2ryy	4ee
.	8c	16G	.	.	.	.	.	.	.	.	.	.	.	.
.	.	16c	.	.	.	.	.	.	.	.	.	.	.	.
4r	8c	8e'	.	.	.	.	.	.	.	.	.	8r	.	8r
.	8c	8cc'	8ee'	.	.	.	.	.	.	.	.	8ccc'	.	8eee'
=221	=221	=221	=221	=221	=221	=221	=221	=221	=221	=221	=221	=221	=221	=221
4D	8r	8b	8dd	2r	2r	2r	2r	2r	2r	2r	2r	8bb	2ryy	8ddd
.	8d	8g	8b	.	.	.	.	.	.	.	.	8gg	.	8bb
4r	8d	8a	8cc	.	.	.	.	.	.	.	.	8aa	.	8ccc
.	8d	8f#	8a	.	.	.	.	.	.	.	.	8ff#	.	8aa
=222	=222	=222	=222	=222	=222	=222	=222	=222	=222	=222	=222	=222	=222	=222
8E	8c#	8g	8g'	8GG	[2g	2g	8g	8gg	[2E	2E	[2cc#	2gg	8gg'	8gg'
8E	8c#	[8c#	16bb	8GG	.	.	8g	8gg	.	.	.	.	16bb	16bb
.	.	.	16aa	.	.	.	.	.	.	.	.	.	16aa	16aa
8E	8c#	16c#]	16gg	8GG	.	.	8g	8gg	.	.	.	.	16gg	16gg
.	.	16d	16ff#	.	.	.	.	.	.	.	.	.	16ff#	16ff#
8E	8c#	16e	16ee	8GG	.	.	8g	8gg	.	.	.	.	16ee	16ee
.	.	16f#	16dd	.	.	.	.	.	.	.	.	.	16dd	16dd
=223	=223	=223	=223	=223	=223	=223	=223	=223	=223	=223	=223	=223	=223	=223
4E	4c#	4g	4cc#	4GG	4g]	4g	4g	4gg	4E]	4E	4cc#]	16gg	4cc#	4cc#
.	.	.	.	.	.	.	.	.	.	.	.	16aa	.	.
.	.	.	.	.	.	.	.	.	.	.	.	16bb	.	.
.	.	.	.	.	.	.	.	.	.	.	.	16aa	.	.
4r	4r	4r	4r	4r	4ryy	4r	4ryy	4r	4ryy	4r	4r	16gg	4r	4r
.	.	.	.	.	.	.	.	.	.	.	.	16ff#	.	.
.	.	.	.	.	.	.	.	.	.	.	.	16ee	.	.
.	.	.	.	.	.	.	.	.	.	.	.	16dd	.	.
=224	=224	=224	=224	=224	=224	=224	=224	=224	=224	=224	=224	=224	=224	=224
8F#	8d 8a	8d 8cc	16ccn	2r	2r	2r	2r	2r	[2F#	2F#	[2dd	2ccn	[2aa	2aa
.	.	.	16ff#	.	.	.	.	.	.	.	.	.	.	.
8F#	8d 8a	8d 8cc	16aa'	.	.	.	.	.	.	.	.	.	.	.
.	.	.	16ff#'	.	.	.	.	.	.	.	.	.	.	.
8F#	8d 8a	8d 8cc	16ccc	.	.	.	.	.	.	.	.	.	.	.
.	.	.	16aa	.	.	.	.	.	.	.	.	.	.	.
8F#	8d 8a	8d 8cc	16ff#'	.	.	.	.	.	.	.	.	.	.	.
.	.	.	16dd'	.	.	.	.	.	.	.	.	.	.	.
=225	=225	=225	=225	=225	=225	=225	=225	=225	=225	=225	=225	=225	=225	=225
4F#	4d 4a	4d 4cc	4cc	2r	2r	2r	2r	2r	4F#]	4F#	4dd]	4cc	4aa]	4aa
4r	4r	4r	4r	.	.	.	.	.	8ryy	8r	4r	8r	8ryy	8r
.	.	.	.	.	.	.	.	.	8D	16D	.	16d	8dd	16dd
.	.	.	.	.	.	.	.	.	.	16G	.	16g	.	16gg
*	*	*	*	*	*	*	*clefF4	*clefF4	*	*	*	*	*	*
=226	=226	=226	=226	=226	=226	=226	=226	=226	=226	=226	=226	=226	=226	=226
2r	2r	2r	2r	16GG	2r	2r	2GG	[2G	4G	4B	4g	4b	4gg	4bb
.	.	.	.	16GG	.	.	.	.	.	.	.	.	.	.
.	.	.	.	16GG	.	.	.	.	.	.	.	.	.	.
.	.	.	.	16GG	.	.	.	.	.	.	.	.	.	.
.	.	.	.	16GG	.	.	.	.	8A	8c	8a	8cc	8aa	8ccc
.	.	.	.	16GG	.	.	.	.	.	.	.	.	.	.
.	.	.	.	16GG	.	.	.	.	8F#'	8A'	8f#'	8a'	8ff#'y	8aa'
.	.	.	.	16GG	.	.	.	.	.	.	.	.	.	.
=227	=227	=227	=227	=227	=227	=227	=227	=227	=227	=227	=227	=227	=227	=227
2r	2r	8r	8r	16GG	2r	2r	2GG	2G_	4G	4G	4g	4g	4gg	4gg
.	.	.	.	16GG	.	.	.	.	.	.	.	.	.	.
.	.	8G 8d	8B 8g	16GG	.	.	.	.	.	.	.	.	.	.
.	.	.	.	16GG	.	.	.	.	.	.	.	.	.	.
.	.	8G 8d	8B 8g	16GG	.	.	.	.	8ryy	8r	4r	8r	8ryy	8r
.	.	.	.	16GG	.	.	.	.	.	.	.	.	.	.
.	.	8r	8r	16GG	.	.	.	.	8G	16G	.	16g	8gg	16gg
.	.	.	.	16GG	.	.	.	.	.	16B	.	16b	.	16bb
=228	=228	=228	=228	=228	=228	=228	=228	=228	=228	=228	=228	=228	=228	=228
2r	2r	2r	2r	16GG	2r	2r	2GG	2G_	4B	4d	4b	4dd	4bb	4ddd
.	.	.	.	16GG	.	.	.	.	.	.	.	.	.	.
.	.	.	.	16GG	.	.	.	.	.	.	.	.	.	.
.	.	.	.	16GG	.	.	.	.	.	.	.	.	.	.
.	.	.	.	16GG	.	.	.	.	8c	8e	8cc	8ee	8ccc	8eee
.	.	.	.	16GG	.	.	.	.	.	.	.	.	.	.
.	.	.	.	16GG	.	.	.	.	8A'	8c'	8a'	8cc'	8aa'y	8ccc'
.	.	.	.	16GG	.	.	.	.	.	.	.	.	.	.
=229	=229	=229	=229	=229	=229	=229	=229	=229	=229	=229	=229	=229	=229	=229
2r	2r	8r	8r	16GG	2r	2r	2GG	2G_	4G	4B	4g	4b	4gg	4bb
.	.	.	.	16GG	.	.	.	.	.	.	.	.	.	.
.	.	8G 8d	8B 8g	16GG	.	.	.	.	.	.	.	.	.	.
.	.	.	.	16GG	.	.	.	.	.	.	.	.	.	.
.	.	8G 8d	8B 8g	16GG	.	.	.	.	8ryy	8r	8ryy	8r	8ryy	8r
.	.	.	.	16GG	.	.	.	.	.	.	.	.	.	.
*	*	*	*	*	*	*	*	*	*clefC4	*clefC4	*	*	*	*
.	.	8r	8r	16GG	.	.	.	.	8c	8e	8cc	8ee	8ccc	8eee
.	.	.	.	16GG	.	.	.	.	.	.	.	.	.	.
=230	=230	=230	=230	=230	=230	=230	=230	=230	=230	=230	=230	=230	=230	=230
2r	2r	8r	8r	16GG	2r	2r	2GG	2G_	4B	4d	4b	4dd	4bb	4ddd
.	.	.	.	16GG	.	.	.	.	.	.	.	.	.	.
.	.	8G 8d	8B 8g	16GG	.	.	.	.	.	.	.	.	.	.
.	.	.	.	16GG	.	.	.	.	.	.	.	.	.	.
.	.	8G 8d	8B 8g	16GG	.	.	.	.	8ryy	8r	8ryy	8r	8ryy	8r
.	.	.	.	16GG	.	.	.	.	.	.	.	.	.	.
.	.	8r	8r	16GG	.	.	.	.	8A	8f#	8ff#	8ccc	8aa	8ccc
.	.	.	.	16GG	.	.	.	.	.	.	.	.	.	.
=231	=231	=231	=231	=231	=231	=231	=231	=231	=231	=231	=231	=231	=231	=231
2r	2r	8r	8r	16GG	2r	2r	2GG	2G_	4B	4g	4gg	4bb	4gg	4bb
.	.	.	.	16GG	.	.	.	.	.	.	.	.	.	.
.	.	8G 8d	8B 8g	16GG	.	.	.	.	.	.	.	.	.	.
.	.	.	.	16GG	.	.	.	.	.	.	.	.	.	.
.	.	8G 8d	8B 8g	16GG	.	.	.	.	8ryy	8r	8ryy	8r	8ryy	8r
.	.	.	.	16GG	.	.	.	.	.	.	.	.	.	.
.	.	8r	8r	16GG	.	.	.	.	8c	8e	8cc	8ee	8ccc	8eee
.	.	.	.	16GG	.	.	.	.	.	.	.	.	.	.
=232	=232	=232	=232	=232	=232	=232	=232	=232	=232	=232	=232	=232	=232	=232
2r	2r	8r	8r	16GG	2r	2r	2GG	2G_	4B	4d	4b	4dd	4bb	4ddd
.	.	.	.	16GG	.	.	.	.	.	.	.	.	.	.
.	.	8G 8d	8B 8g	16GG	.	.	.	.	.	.	.	.	.	.
.	.	.	.	16GG	.	.	.	.	.	.	.	.	.	.
.	.	8G 8d	8B 8g	16GG	.	.	.	.	8ryy	8r	8ryy	8r	8ryy	8r
.	.	.	.	16GG	.	.	.	.	.	.	.	.	.	.
.	.	8r	8r	16GG	.	.	.	.	8A	8f#	8ff#	8ccc	8aa	8ccc
.	.	.	.	16GG	.	.	.	.	.	.	.	.	.	.
=233	=233	=233	=233	=233	=233	=233	=233	=233	=233	=233	=233	=233	=233	=233
2r	2r	2r	4r	16GG	2r	2r	2GG	2G_	4B	4g	4gg	4bb	4gg	4bb
.	.	.	.	16GG	.	.	.	.	.	.	.	.	.	.
.	.	.	.	16GG	.	.	.	.	.	.	.	.	.	.
.	.	.	.	16GG	.	.	.	.	.	.	.	.	.	.
.	.	.	8r	16GG	.	.	.	.	4ryy	4r	4r	8r	4ryy	4r
.	.	.	.	16GG	.	.	.	.	.	.	.	.	.	.
.	.	.	16g	16GG	.	.	.	.	.	.	.	16g	.	.
.	.	.	16b-	16GG	.	.	.	.	.	.	.	16b-	.	.
*	*	*	*	*	*	*	*	*	*clefF4	*clefF4	*	*	*	*
=234	=234	=234	=234	=234	=234	=234	=234	=234	=234	=234	=234	=234	=234	=234
8G	16G 16e-	16B-	4ee-	16GG	2g	2g	2GG	2G]	2G	2G	2ee-	4ee-X	[2bb-	[2bb-
.	16G 16e-	16e-	.	16GG	.	.	.	.	.	.	.	.	.	.
8G	16G 16e-	16B-	.	16GG	.	.	.	.	.	.	.	.	.	.
.	16G 16e-	16e-	.	16GG	.	.	.	.	.	.	.	.	.	.
8G	16G 16e-	16B-	8gg	16GG	.	.	.	.	.	.	.	8gg	.	.
.	16G 16e-	16e-	.	16GG	.	.	.	.	.	.	.	.	.	.
8G	16G 16e-	16B-	8ee-'	16GG	.	.	.	.	.	.	.	8ee-'	.	.
.	16G 16e-	16e-	.	16GG	.	.	.	.	.	.	.	.	.	.
*	*	*	*	*	*	*	*clefG2	*clefG2	*	*	*	*	*	*
=235	=235	=235	=235	=235	=235	=235	=235	=235	=235	=235	=235	=235	=235	=235
8A-	16A- 16d	16B-	8dd	16GG	2r	2r	2r	2r	2A-	2A-	2ffn	2dd	2bb-_	2bb-_
.	16A- 16d	16a-	.	16GG	.	.	.	.	.	.	.	.	.	.
8A-	16A- 16d	16B-	8dd	16GG	.	.	.	.	.	.	.	.	.	.
.	16A- 16d	16a-	.	16GG	.	.	.	.	.	.	.	.	.	.
8A-	16A- 16d	16B-	8dd	16GG	.	.	.	.	.	.	.	.	.	.
.	16A- 16d	16a-	.	16GG	.	.	.	.	.	.	.	.	.	.
8A-	16A- 16d	16B-	8bb-	16GG	.	.	.	.	.	.	.	.	.	.
.	16A- 16d	16a-	.	16GG	.	.	.	.	.	.	.	.	.	.
=236	=236	=236	=236	=236	=236	=236	=236	=236	=236	=236	=236	=236	=236	=236
8G	16G 16e-	16B-	8ee-	2r	2r	2r	2r	2r	2G	2G	2ee-	2ee-	2bb-]	2bb-]
.	16G 16e-	16e-	.	.	.	.	.	.	.	.	.	.	.	.
8G	16G 16e-	16B-	8ee-	.	.	.	.	.	.	.	.	.	.	.
.	16G 16e-	16e-	.	.	.	.	.	.	.	.	.	.	.	.
8G	16G 16e-	16B-	8ee-	.	.	.	.	.	.	.	.	.	.	.
.	16G 16e-	16e-	.	.	.	.	.	.	.	.	.	.	.	.
8G	16G 16e-	16B-	8eee-X	.	.	.	.	.	.	.	.	.	.	.
.	16G 16e-	16e-	.	.	.	.	.	.	.	.	.	.	.	.
=237	=237	=237	=237	=237	=237	=237	=237	=237	=237	=237	=237	=237	=237	=237
8G	16B- 16d	16B-	8dd	2r	2r	2r	2r	2r	2B-	2B-	2dd	2dd	2ddd	2ddd
.	16B- 16d	16d	.	.	.	.	.	.	.	.	.	.	.	.
8G	16B- 16d	16B-	8dd	.	.	.	.	.	.	.	.	.	.	.
.	16B- 16d	16d	.	.	.	.	.	.	.	.	.	.	.	.
8G	16B- 16d	16B-	8dd	.	.	.	.	.	.	.	.	.	.	.
.	16B- 16d	16d	.	.	.	.	.	.	.	.	.	.	.	.
8G	16B- 16d	16B-	8ddd	.	.	.	.	.	.	.	.	.	.	.
.	16B- 16d	16d	.	.	.	.	.	.	.	.	.	.	.	.
=238	=238	=238	=238	=238	=238	=238	=238	=238	=238	=238	=238	=238	=238	=238
8G	16G 16en	16B-	8cc#	2r	2r	2r	2r	2r	[2B-	[2B-	[2een	2cc#	[2ccc#	[2ccc#
.	16G 16en	16en	.	.	.	.	.	.	.	.	.	.	.	.
8G	16G 16en	16B-	8cc#	.	.	.	.	.	.	.	.	.	.	.
.	16G 16en	16e	.	.	.	.	.	.	.	.	.	.	.	.
8G	16G 16en	16B-	8cc#	.	.	.	.	.	.	.	.	.	.	.
.	16G 16en	16e	.	.	.	.	.	.	.	.	.	.	.	.
8G	16G 16en	16B-	8ccc#X	.	.	.	.	.	.	.	.	.	.	.
.	16G 16en	16e	.	.	.	.	.	.	.	.	.	.	.	.
=239	=239	=239	=239	=239	=239	=239	=239	=239	=239	=239	=239	=239	=239	=239
4G	4G 4e	4B-	4cc#	2r	2r	2r	2r	2r	4B-]	4B-]	4ee]	4cc#	4ccc#]	4ccc#]
4r	4r	4r	8r	.	.	.	.	.	4r	4r	4ryy	4r	4r	4r
.	.	.	8gg	.	.	.	.	.	.	.	.	.	.	.
=240	=240	=240	=240	=240	=240	=240	=240	=240	=240	=240	=240	=240	=240	=240
2r	4e	4g	8cc#	2r	2r	2r	2r	2r	2r	2r	2r	2r	2r	2r
.	.	.	8cc#	.	.	.	.	.	.	.	.	.	.	.
.	4r	4r	8cc#	.	.	.	.	.	.	.	.	.	.	.
.	.	.	8aa	.	.	.	.	.	.	.	.	.	.	.
=241	=241	=241	=241	=241	=241	=241	=241	=241	=241	=241	=241	=241	=241	=241
4r	4f#X	4a	8ccn	2r	2r	2r	2r	2r	2r	2r	2r	2r	2r	2r
.	.	.	8cc	.	.	.	.	.	.	.	.	.	.	.
8r	8r	8r	8cc	.	.	.	.	.	.	.	.	.	.	.
8en	8een	8een	8een	.	.	.	.	.	.	.	.	.	.	.
=242	=242	=242	=242	=242	=242	=242	=242	=242	=242	=242	=242	=242	=242	=242
8A	16a	16a	16a	2r	2r	2r	2r	2r	2r	2r	2r	2r	2r	2r
.	16a	16a	16a	.	.	.	.	.	.	.	.	.	.	.
8c	16cc	16cc	16cc	.	.	.	.	.	.	.	.	.	.	.
.	16cc	16cc	16cc	.	.	.	.	.	.	.	.	.	.	.
8F#X	16f#X	16f#X	16f#X	.	.	.	.	.	.	.	.	.	.	.
.	16f#	16f#	16f#	.	.	.	.	.	.	.	.	.	.	.
8A	16a	16a	16a	.	.	.	.	.	.	.	.	.	.	.
.	16a	16a	16a	.	.	.	.	.	.	.	.	.	.	.
=243	=243	=243	=243	=243	=243	=243	=243	=243	=243	=243	=243	=243	=243	=243
8C	16c	16c	16c	2r	2r	2r	2r	2r	2r	2r	2r	2r	2r	2r
.	16c	16c	16c	.	.	.	.	.	.	.	.	.	.	.
8E	16e	16e	16e	.	.	.	.	.	.	.	.	.	.	.
.	16e	16e	16e	.	.	.	.	.	.	.	.	.	.	.
8AA	16A	16A	16A	.	.	.	.	.	.	.	.	.	.	.
.	16A	16A	16A	.	.	.	.	.	.	.	.	.	.	.
8C	16c	16c	16c	.	.	.	.	.	.	.	.	.	.	.
.	16c	16c	16c	.	.	.	.	.	.	.	.	.	.	.
=244	=244	=244	=244	=244	=244	=244	=244	=244	=244	=244	=244	=244	=244	=244
16BB	16B	16B	16B	4GG	4g	4dd	4b	4gg	4G	4Bn	4b	4gg	4gg	4gg
16C	16c	16c	16c	.	.	.	.	.	.	.	.	.	.	.
16BB	16B	16B	16B	.	.	.	.	.	.	.	.	.	.	.
16AA	16A	16A	16A	.	.	.	.	.	.	.	.	.	.	.
16GG	16G	16G	16G	4r	4ryy	4r	4ryy	4r	4ryy	4r	4ryy	4r	4r	4r
16E	16e	16e	16e	.	.	.	.	.	.	.	.	.	.	.
16D	16d	16d	16d	.	.	.	.	.	.	.	.	.	.	.
16C	16c	16c	16c	.	.	.	.	.	.	.	.	.	.	.
=245	=245	=245	=245	=245	=245	=245	=245	=245	=245	=245	=245	=245	=245	=245
16BB	16B	16B	16B	4GG	4g	4dd	4b	4gg	4G	4B	4b	4gg	4gg	4gg
16C	16c	16c	16c	.	.	.	.	.	.	.	.	.	.	.
16BB	16B	16B	16B	.	.	.	.	.	.	.	.	.	.	.
16AA	16A	16A	16A	.	.	.	.	.	.	.	.	.	.	.
16GG	16G	16G	16G	4r	4ryy	4r	4ryy	4r	4ryy	4r	4ryy	4r	4r	4r
16E	16e	16e	16e	.	.	.	.	.	.	.	.	.	.	.
16D	16d	16d	16d	.	.	.	.	.	.	.	.	.	.	.
16C	16c	16c	16c	.	.	.	.	.	.	.	.	.	.	.
=246	=246	=246	=246	=246	=246	=246	=246	=246	=246	=246	=246	=246	=246	=246
16BB	16B	16B	16B	4GG	4g	4dd	4b	4gg	4G	4B	4b	4gg	4gg	4gg
16G	16g	16g	16g	.	.	.	.	.	.	.	.	.	.	.
16F#	16f#	16f#	16f#	.	.	.	.	.	.	.	.	.	.	.
16E	16e	16e	16e	.	.	.	.	.	.	.	.	.	.	.
16D	16d	16d	16d	4r	4ryy	4r	4ryy	4r	4ryy	4r	4ryy	4r	4r	4r
16c	16cc	16cc	16cc	.	.	.	.	.	.	.	.	.	.	.
16B	16b	16b	16b	.	.	.	.	.	.	.	.	.	.	.
16A	16a	16a	16a	.	.	.	.	.	.	.	.	.	.	.
=247	=247	=247	=247	=247	=247	=247	=247	=247	=247	=247	=247	=247	=247	=247
16G	16g	16g	16g	4GG	4g	4dd	4b	4gg	4G	4B	4b	4gg	4gg	4gg
16c	16cc	16cc	16cc	.	.	.	.	.	.	.	.	.	.	.
16B	16b	16b	16b	.	.	.	.	.	.	.	.	.	.	.
16A	16a	16a	16a	.	.	.	.	.	.	.	.	.	.	.
16G	16g	16g	16g	4r	4ryy	4r	4ryy	4r	4ryy	4r	4ryy	4r	4r	4r
16c	16cc	16cc	16cc	.	.	.	.	.	.	.	.	.	.	.
16B	16b	16b	16b	.	.	.	.	.	.	.	.	.	.	.
16A	16a	16a	16a	.	.	.	.	.	.	.	.	.	.	.
=248	=248	=248	=248	=248	=248	=248	=248	=248	=248	=248	=248	=248	=248	=248
16G	16g	16g	16g	4GG	4g	4dd	4b	4gg	4G	4B	4b	4gg	4gg	4gg
16c	16cc	16ee	16ee	.	.	.	.	.	.	.	.	.	.	.
16B	16b	16dd	16dd	.	.	.	.	.	.	.	.	.	.	.
16A	16a	16cc	16cc	.	.	.	.	.	.	.	.	.	.	.
16G	16g	16b	16b	4r	4ryy	4r	4ryy	4r	4ryy	4r	4ryy	4r	4r	4r
16c	16cc	16ee	16ee	.	.	.	.	.	.	.	.	.	.	.
16B	16b	16dd	16dd	.	.	.	.	.	.	.	.	.	.	.
16A	16a	16cc	16cc	.	.	.	.	.	.	.	.	.	.	.
=249	=249	=249	=249	=249	=249	=249	=249	=249	=249	=249	=249	=249	=249	=249
16G	16g	16d 16b	16b	8GG	2g	[2dd	2gg	[2bb	2B	[2d	2dd	[2bb	[2ddd	[2ddd
16G	16g	16d 16b	16b	.	.	.	.	.	.	.	.	.	.	.
16G	16g	16d 16b	16dd	16GG	.	.	.	.	.	.	.	.	.	.
16G	16g	16d 16b	16dd	16GG	.	.	.	.	.	.	.	.	.	.
16G	16g	16d 16b	16gg	8GG	.	.	.	.	.	.	.	.	.	.
16G	16g	16d 16b	16gg	.	.	.	.	.	.	.	.	.	.	.
16G	16g	16d 16b	16bb	8GG	.	.	.	.	.	.	.	.	.	.
16G	16g	16d 16b	16bb	.	.	.	.	.	.	.	.	.	.	.
=250	=250	=250	=250	=250	=250	=250	=250	=250	=250	=250	=250	=250	=250	=250
16G	16g	16d 16b	16ddd	8GG	2g	2dd]	2gg	2bb]	2B	2d]	2dd	2bb]	2ddd]	2ddd]
16G	16g	16d 16b	16ddd	.	.	.	.	.	.	.	.	.	.	.
16G	16g	16d 16b	16bb	8GG	.	.	.	.	.	.	.	.	.	.
16G	16g	16d 16b	16bb	.	.	.	.	.	.	.	.	.	.	.
16G	16g	16d 16b	16gg	8GG	.	.	.	.	.	.	.	.	.	.
16G	16g	16d 16b	16gg	.	.	.	.	.	.	.	.	.	.	.
16G	16g	16d 16b	16dd	8GG	.	.	.	.	.	.	.	.	.	.
16G	16g	16d 16b	16dd	.	.	.	.	.	.	.	.	.	.	.
=251	=251	=251	=251	=251	=251	=251	=251	=251	=251	=251	=251	=251	=251	=251
16C	16c	16cc	16ee	8GG	2cc	[2ee	[2gg	2gg	2c	[2e	[2ee	4ccc	2eee	2eee
16C	16c	16cc	16ee	.	.	.	.	.	.	.	.	.	.	.
16C	16c	16ee	16gg	16GG	.	.	.	.	.	.	.	.	.	.
16C	16c	16ee	16gg	16GG	.	.	.	.	.	.	.	.	.	.
16C	16c	16gg	16ccc	8GG	.	.	.	.	.	.	.	[4gg	.	.
16C	16c	16gg	16ccc	.	.	.	.	.	.	.	.	.	.	.
16C	16c	16ccc	16eee	8GG	.	.	.	.	.	.	.	.	.	.
16C	16c	16ccc	16eee	.	.	.	.	.	.	.	.	.	.	.
=252	=252	=252	=252	=252	=252	=252	=252	=252	=252	=252	=252	=252	=252	=252
16C	16c	16eee	16ggg	8GG	2cc	2ee]	2gg]	2gg	2c	2e]	2ee]	4gg]	4ggg	4ggg
16C	16c	16eee	16ggg	.	.	.	.	.	.	.	.	.	.	.
16C	16c	16ccc	16eee	8GG	.	.	.	.	.	.	.	.	.	.
16C	16c	16ccc	16eee	.	.	.	.	.	.	.	.	.	.	.
16C	16c	16eee	16ggg	8GG	.	.	.	.	.	.	.	4ccc	4eee	4eee
16C	16c	16eee	16ggg	.	.	.	.	.	.	.	.	.	.	.
16C	16c	16ccc	16eee	8GG	.	.	.	.	.	.	.	.	.	.
16C	16c	16ccc	16eee	.	.	.	.	.	.	.	.	.	.	.
=253	=253	=253	=253	=253	=253	=253	=253	=253	=253	=253	=253	=253	=253	=253
16D	16d	16bb	16ddd	8GG	[2dd	2dd	2gg	2bb	2G	2B	2gg	2bb	4ddd	4ddd
16D	16d	16bb	16ddd	.	.	.	.	.	.	.	.	.	.	.
16D	16d	16gg	16bb	16GG	.	.	.	.	.	.	.	.	.	.
16D	16d	16gg	16bb	16GG	.	.	.	.	.	.	.	.	.	.
8D	8d	16bb	16ddd	8GG	.	.	.	.	.	.	.	.	4bb	4bb
.	.	16bb	16ddd	.	.	.	.	.	.	.	.	.	.	.
8d	8dd	16gg	16bb	8GG	.	.	.	.	.	.	.	.	.	.
.	.	16gg	16bb	.	.	.	.	.	.	.	.	.	.	.
=254	=254	=254	=254	=254	=254	=254	=254	=254	=254	=254	=254	=254	=254	=254
8F#	8f#	16dd	16dd	8D	2dd_	2dd	2dd	2aa	2D	2A	2dd	2aa	4ccc	4ccc
.	.	16ee	16ee	.	.	.	.	.	.	.	.	.	.	.
8F#	8f#	16ff#	16ff#	16D	.	.	.	.	.	.	.	.	.	.
.	.	16gg	16gg	16D	.	.	.	.	.	.	.	.	.	.
8F#	8f#	16aa	16aa	8D	.	.	.	.	.	.	.	.	4dd	4dd
.	.	16bb	16bb	.	.	.	.	.	.	.	.	.	.	.
8F#	8f#	16ccc	16ccc	8D	.	.	.	.	.	.	.	.	.	.
.	.	16aa	16aa	.	.	.	.	.	.	.	.	.	.	.
=255	=255	=255	=255	=255	=255	=255	=255	=255	=255	=255	=255	=255	=255	=255
4G	4g	16bb	16bb	4GG	2dd_	2dd	2gg	2bb	4BB	4G	2gg	2bb	4bb	4bb
.	.	16ccc	16ccc	.	.	.	.	.	.	.	.	.	.	.
.	.	16bb	16bb	.	.	.	.	.	.	.	.	.	.	.
.	.	16aa	16aa	.	.	.	.	.	.	.	.	.	.	.
4r	4r	8gg	8gg	4r	.	.	.	.	4ryy	4r	.	.	4gg	4gg
.	.	8ddd	8ddd	.	.	.	.	.	.	.	.	.	.	.
=256	=256	=256	=256	=256	=256	=256	=256	=256	=256	=256	=256	=256	=256	=256
2r	2r	16d	8ff#	4D	2dd]	2dd	2dd	2aa	2D	2A	2dd	2aa	2ff#	2ff#
.	.	16e	.	.	.	.	.	.	.	.	.	.	.	.
.	.	16f#	8ff#	.	.	.	.	.	.	.	.	.	.	.
.	.	16g	.	.	.	.	.	.	.	.	.	.	.	.
.	.	16a	8ff#	4r	.	.	.	.	.	.	.	.	.	.
.	.	16b	.	.	.	.	.	.	.	.	.	.	.	.
.	.	16cc	8ff#	.	.	.	.	.	.	.	.	.	.	.
.	.	16a	.	.	.	.	.	.	.	.	.	.	.	.
=257	=257	=257	=257	=257	=257	=257	=257	=257	=257	=257	=257	=257	=257	=257
4r	4r	16b	4gg	4GG	2g	2gg	2gg	2bb	4G	4B	4.gg	4.gg	4gg	4gg
.	.	16cc	.	.	.	.	.	.	.	.	.	.	.	.
.	.	16b	.	.	.	.	.	.	.	.	.	.	.	.
.	.	16a	.	.	.	.	.	.	.	.	.	.	.	.
8r	8r	8g	8r	4r	.	.	.	.	4ryy	4r	.	.	4r	4r
8e	8ee	8ee	8ee	.	.	.	.	.	.	.	8ee	8ee	.	.
=258	=258	=258	=258	=258	=258	=258	=258	=258	=258	=258	=258	=258	=258	=258
16D	16d	16d	16d	8D	2dd	2dd	2dd	2aa	2D	2A	4.dd	4.dd	2aa	2aa
16E	16e	16e	16e	.	.	.	.	.	.	.	.	.	.	.
16D	16d	16d	16d	16D	.	.	.	.	.	.	.	.	.	.
16C	16c	16c	16c	16D	.	.	.	.	.	.	.	.	.	.
16BB	16B	16B	16B	8D	.	.	.	.	.	.	.	.	.	.
16C	16c	16c	16c	.	.	.	.	.	.	.	.	.	.	.
16BB	16B	16B	16B	8D	.	.	.	.	.	.	8cc	8ff#	.	.
16AA	16A	16A	16A	.	.	.	.	.	.	.	.	.	.	.
=259	=259	=259	=259	=259	=259	=259	=259	=259	=259	=259	=259	=259	=259	=259
8GG	8G	8G	8G	4GG	4.g	4.gg	4.b	4.gg	4.G	4.B	4.b	4.gg	4.bb	4.bb
8GG	8G	8G	8G	.	.	.	.	.	.	.	.	.	.	.
8GG	8G	8G	8G	8r	.	.	.	.	.	.	.	.	.	.
8A	8a	8a	8a	8D	8dd	8dd	8dd	8aa	8F#	8A	8cc	8ff#	8aa	8aa
=260	=260	=260	=260	=260	=260	=260	=260	=260	=260	=260	=260	=260	=260	=260
8GG	8G	8G	8G	4GG	4.g	4.gg	4.b	4.gg	4.G	4.B	4.b	4.gg	4.bb	4.bb
8GG	8G	8G	8G	.	.	.	.	.	.	.	.	.	.	.
8GG	8G	8G	8G	8r	.	.	.	.	.	.	.	.	.	.
8A	8a	8a	8a	8D	8dd	8dd	8dd	8aa	8F#	8A	8cc	8ff#	8aa	8aa
=261	=261	=261	=261	=261	=261	=261	=261	=261	=261	=261	=261	=261	=261	=261
8GG	8G	8G	8G	8GG	8g	8gg	8gg	8bb	8G	8B	8b	8gg	8bb	8bb
8A	8a	8a	8a	8D	8dd	8dd	8dd	8aa	8F#	8A	8cc	8ff#	8aa	8aa
8GG	8G	8G	8G	8GG	8g	8gg	8gg	8bb	8G	8B	8b	8gg	8bb	8bb
8A	8a	8a	8a	8D	8dd	8dd	8dd	8aa	8F#	8A	8cc	8ff#	8aa	8aa
=262	=262	=262	=262	=262	=262	=262	=262	=262	=262	=262	=262	=262	=262	=262
4GG	4G	4G	4G	4GG	4g	4gg	4gg	4bb	4G	4B	4b	4gg	4bb	4bb
4d	4dd	4d 4a 4ff#	4d 4a 4ff#	4D	4dd	4dd	4dd	4aa	4d	4d	4cc	4ff#	4ddd	4ddd
=263	=263	=263	=263	=263	=263	=263	=263	=263	=263	=263	=263	=263	=263	=263
4B	4b	4d 4b 4gg	4d 4b 4gg	4GG	4g	4gg	4gg	4bb	4B	4B	4b	4gg	4bb	4bb
4D	4d	4d 4cc	4dd 4aa	4D	4dd	4dd	4dd	4aa	4D	4D	4ff#	4aa	4aa	4aa
=264	=264	=264	=264	=264	=264	=264	=264	=264	=264	=264	=264	=264	=264	=264
4GG	4G	4d 4b	4d 4dd 4bb	4GG	4g	4gg	4gg	4bb	4B	4B	4gg	4bb	4gg	4gg
4r	4r	4r	4r	4r	4ryy	4r	4ryy	4r	4ryy	4r	4ryy	4r	4r	4r
=265	=265	=265	=265	=265	=265	=265	=265	=265	=265	=265	=265	=265	=265	=265
2r	2r	2r	2r	2r	2r	2r	2r	2r	4D	4d	4ff#	4aa	4ddd	4ddd
.	.	.	.	.	.	.	.	.	4ryy	4r	4ryy	4r	4r	4r
=266	=266	=266	=266	=266	=266	=266	=266	=266	=266	=266	=266	=266	=266	=266
2r	2r	2r	2r	2r	2r	2r	2r	2r	4G	4d	4gg	4bb	4bb	4bb
.	.	.	.	.	.	.	.	.	4ryy	4r	4ryy	4r	4r	4r
=267	=267	=267	=267	=267	=267	=267	=267	=267	=267	=267	=267	=267	=267	=267
4D	4d	4d 4a 4ff#	4d 4a 4ff#	4D	4dd	4dd	4dd	4aa	4D	4d	4cc	4ff#	4aa	4aa
4r	4r	4r	4r	4r	4ryy	4r	4ryy	4r	4ryy	4r	4ryy	4r	4r	4r
=268	=268	=268	=268	=268	=268	=268	=268	=268	=268	=268	=268	=268	=268	=268
4GG	4G	4d 4b 4gg	4d 4b 4gg	4GG	4g	4gg	4gg	4bb	4G	4B	4b	4gg	4bb	4bb
4r	4r	4r	4r	4r	4ryy	4r	4ryy	4r	4ryy	4r	4ryy	4r	4r	4r
==	==	==	==	==	==	==	==	==	==	==	==	==	==	==
*-	*-	*-	*-	*-	*-	*-	*-	*-	*-	*-	*-	*-	*-	*-
!!!CDT: 1732/03/31/-1809/05/31/
!!!CNT: Austrian
!!!PPR: Ernst Eulenburg, Ltd.
!!!PPP: London
!!!PDT: 1880///
!!!AGN: symphony
!!!AST: classical, orchestral
!!!YOR: Ernst Praetorius, editor
!!!RDT: 1995 February 15
!!!YER: March 2012
!!!EEV: 2.0
!!!EFL: 8/48
!!!ENC: Frances Bennion
!!!EED: W.B. Hewlett
!!!ONB: Converted from MuseData Fall 2011 by Andreas Kornstaedt
!!!ONB: Manual editing 2012/02/22/ by Craig Stuart Sapp
!!!YEC: Copyright 1996,2012 Center for Computer Assisted Research in the Humanities
!!!YEM: Rights to all derivative electronic formats reserved.
!!!YEM: Refer to licensing agreement for further details.
